; generated by PrusaSlicer 2.2.0+linux-x64 on 2020-11-17 at 03:46:51 UTC

; Vzorovy konfiguracní soubor pro ABS, celokovovy hotend 1,75 mm, tryska 0,4 mm
; 
; Zahradnik se bavi Rebel 2
; http://www.zahradniksebavi.cz
; 
; Petr Zahradnik
; clexpert@clexpert.cz

; external perimeters extrusion width = 0.45mm
; perimeters extrusion width = 0.45mm
; infill extrusion width = 0.45mm
; solid infill extrusion width = 0.45mm
; top infill extrusion width = 0.40mm
; support material extrusion width = 0.40mm
; first layer extrusion width = 0.50mm

M201 X9000 Y9000 Z500 E10000 ; sets maximum accelerations, mm/sec^2
M203 X500 Y500 Z12 E120 ; sets maximum feedrates, mm/sec
M204 P1500 R1500 T1500 ; sets acceleration (P, T) and retract acceleration (R), mm/sec^2
M205 X10.00 Y10.00 Z0.20 E2.50 ; sets the jerk limits, mm/sec
M205 S0 T0 ; sets the minimum extruding and travel feed rate, mm/sec
M107
M190 S80 ; set bed temperature and wait for it to be reached
M104 S230 ; set temperature
G28 ; home all axes
G1 Z5 F5000 ; lift nozzle
M109 S230 ; set temperature and wait for it to be reached
G21 ; set units to millimeters
G90 ; use absolute coordinates
M82 ; use absolute distances for extrusion
G92 E0
; Filament gcode
G1 Z0.050 F7200.000
G1 E-2.00000 F2400.00000
G92 E0
G1 X81.416 Y84.122 F7200.000
G1 E2.00000 F2400.00000
G1 F1200.000
G1 X82.312 Y83.344 E2.05504
G1 X83.337 Y82.747 E2.11007
G1 X84.450 Y82.353 E2.16482
G1 X85.622 Y82.172 E2.21986
G1 X114.006 Y82.161 E3.53668
G1 X115.138 Y82.264 E3.58942
G1 X116.234 Y82.568 E3.64215
G1 X117.252 Y83.059 E3.69460
G1 X118.172 Y83.727 E3.74734
G1 X118.957 Y84.549 E3.80008
G1 X119.580 Y85.492 E3.85253
G1 X120.028 Y86.537 E3.90527
G1 X120.281 Y87.645 E3.95800
G1 X120.339 Y88.489 E3.99722
G1 X120.328 Y111.879 E5.08237
G1 X120.164 Y112.979 E5.13396
G1 X119.811 Y114.033 E5.18554
G1 X119.279 Y115.010 E5.23713
G1 X118.584 Y115.878 E5.28872
G1 X117.617 Y116.706 E5.34778
G1 X116.510 Y117.321 E5.40655
G1 X115.302 Y117.704 E5.46532
G1 X114.036 Y117.839 E5.52437
G1 X85.658 Y117.830 E6.84091
G1 X84.551 Y117.671 E6.89279
G1 X83.484 Y117.318 E6.94495
G1 X82.501 Y116.786 E6.99682
G1 X81.622 Y116.084 E7.04899
G1 X80.798 Y115.122 E7.10776
G1 X80.181 Y114.015 E7.16653
G1 X79.796 Y112.802 E7.22558
G1 X79.661 Y111.542 E7.28435
G1 X79.674 Y88.096 E8.37210
G1 X79.840 Y87.003 E8.42340
G1 X80.194 Y85.955 E8.47470
G1 X80.725 Y84.985 E8.52600
G1 X81.378 Y84.169 E8.57451
G1 X81.726 Y84.451 F7200.000
G1 F1200.000
G1 X82.599 Y83.688 E8.62830
G1 X83.549 Y83.141 E8.67915
G1 X84.590 Y82.779 E8.73026
G1 X85.674 Y82.616 E8.78111
G1 X114.006 Y82.607 E10.09551
G1 X115.062 Y82.704 E10.14469
G1 X116.083 Y82.988 E10.19387
G1 X117.037 Y83.450 E10.24305
G1 X117.893 Y84.076 E10.29223
G1 X118.622 Y84.845 E10.34141
G1 X119.202 Y85.732 E10.39059
G1 X119.616 Y86.715 E10.44005
G1 X119.845 Y87.750 E10.48923
G1 X119.883 Y111.842 E11.60691
G1 X119.729 Y112.878 E11.65554
G1 X119.394 Y113.872 E11.70416
G1 X118.889 Y114.790 E11.75279
G1 X118.233 Y115.600 E11.80113
G1 X117.337 Y116.357 E11.85558
G1 X116.308 Y116.922 E11.91002
G1 X115.188 Y117.272 E11.96446
G1 X114.021 Y117.393 E12.01890
G1 X85.694 Y117.385 E13.33303
G1 X84.645 Y117.235 E13.38221
G1 X83.645 Y116.902 E13.43111
G1 X82.720 Y116.396 E13.48002
G1 X81.900 Y115.733 E13.52892
G1 X81.143 Y114.837 E13.58336
G1 X80.578 Y113.808 E13.63780
G1 X80.229 Y112.694 E13.69197
G1 X80.107 Y111.527 E13.74641
G1 X80.118 Y88.140 E14.83136
G1 X80.274 Y87.110 E14.87970
G1 X80.608 Y86.123 E14.92805
G1 X81.111 Y85.210 E14.97640
G1 X81.689 Y84.497 E15.01897
G1 X82.035 Y84.782 F7200.000
G1 F1200.000
G1 X82.121 Y84.677 E15.02525
G1 X82.896 Y84.025 E15.07226
G1 X83.774 Y83.530 E15.11900
G1 X84.727 Y83.204 E15.16574
G1 X85.724 Y83.061 E15.21248
G1 X114.006 Y83.054 E16.52453
G1 X114.986 Y83.144 E16.57021
G1 X115.934 Y83.409 E16.61589
G1 X116.819 Y83.840 E16.66156
G1 X117.617 Y84.428 E16.70751
G1 X118.291 Y85.145 E16.75318
G1 X118.824 Y85.973 E16.79886
G1 X119.202 Y86.888 E16.84480
G1 X119.408 Y87.851 E16.89048
G1 X119.438 Y111.800 E18.00152
G1 X119.295 Y112.774 E18.04720
G1 X118.979 Y113.706 E18.09287
G1 X118.504 Y114.562 E18.13828
G1 X117.879 Y115.323 E18.18396
G1 X117.052 Y116.011 E18.23390
G1 X116.105 Y116.523 E18.28383
G1 X115.081 Y116.838 E18.33351
G1 X114.011 Y116.946 E18.38344
G1 X85.729 Y116.940 E19.69549
G1 X84.749 Y116.801 E19.74143
G1 X83.809 Y116.486 E19.78738
G1 X82.943 Y116.007 E19.83332
G1 X82.177 Y115.379 E19.87926
G1 X81.489 Y114.552 E19.92920
G1 X80.977 Y113.605 E19.97914
G1 X80.662 Y112.581 E20.02881
G1 X80.554 Y111.511 E20.07875
G1 X80.563 Y88.183 E21.16097
G1 X80.707 Y87.215 E21.20638
G1 X81.023 Y86.288 E21.25179
G1 X81.499 Y85.433 E21.29720
G1 X81.997 Y84.828 E21.33354
G1 X82.524 Y85.352 F7200.000
G1 F1200.000
G1 X83.014 Y84.859 E21.36579
G1 X83.661 Y84.392 E21.40280
G1 X84.423 Y84.039 E21.44179
G1 X85.529 Y83.813 E21.49414
G1 X114.521 Y83.818 E22.83914
G1 X115.431 Y83.993 E22.88216
G1 X116.248 Y84.339 E22.92331
G1 X116.883 Y84.771 E22.95896
G1 X117.630 Y85.500 E23.00735
G1 X118.269 Y86.459 E23.06085
G1 X118.559 Y87.249 E23.09989
G1 X118.687 Y88.037 E23.13691
G1 X118.687 Y111.969 E24.24716
G1 X118.520 Y112.890 E24.29061
G1 X118.159 Y113.752 E24.33395
G1 X117.653 Y114.470 E24.37471
G1 X116.986 Y115.141 E24.41859
G1 X116.339 Y115.608 E24.45560
G1 X115.577 Y115.961 E24.49458
G1 X114.472 Y116.187 E24.54692
G1 X85.531 Y116.187 E25.88954
G1 X84.610 Y116.020 E25.93298
G1 X83.748 Y115.659 E25.97633
G1 X83.030 Y115.153 E26.01709
G1 X82.359 Y114.486 E26.06097
G1 X81.892 Y113.839 E26.09798
G1 X81.539 Y113.077 E26.13696
G1 X81.313 Y111.972 E26.18930
G1 X81.313 Y88.031 E27.29995
G1 X81.480 Y87.110 E27.34340
G1 X81.841 Y86.248 E27.38674
G1 X82.347 Y85.530 E27.42750
G1 X82.481 Y85.394 E27.43635
G1 X82.795 Y85.708 F7200.000
G1 F1200.000
G1 X83.316 Y85.188 E27.47050
G1 X83.902 Y84.768 E27.50396
G1 X84.585 Y84.456 E27.53879
G1 X85.551 Y84.260 E27.58452
G1 X114.498 Y84.264 E28.92746
G1 X115.321 Y84.426 E28.96635
G1 X116.051 Y84.740 E29.00323
G1 X116.585 Y85.104 E29.03323
G1 X117.301 Y85.803 E29.07964
G1 X117.860 Y86.640 E29.12633
G1 X118.122 Y87.344 E29.16120
G1 X118.240 Y88.056 E29.19466
G1 X118.240 Y111.948 E30.30307
G1 X118.086 Y112.784 E30.34252
G1 X117.758 Y113.554 E30.38134
G1 X117.301 Y114.196 E30.41788
G1 X116.684 Y114.812 E30.45835
G1 X116.098 Y115.232 E30.49181
G1 X115.415 Y115.544 E30.52664
G1 X114.449 Y115.740 E30.57236
G1 X85.552 Y115.740 E31.91297
G1 X84.716 Y115.586 E31.95242
G1 X83.946 Y115.258 E31.99124
G1 X83.304 Y114.801 E32.02778
G1 X82.688 Y114.184 E32.06825
G1 X82.268 Y113.598 E32.10171
G1 X81.956 Y112.915 E32.13654
G1 X81.760 Y111.949 E32.18226
G1 X81.760 Y88.052 E33.29091
G1 X81.914 Y87.216 E33.33036
G1 X82.242 Y86.446 E33.36918
G1 X82.753 Y85.751 E33.40921
G1 X83.068 Y86.066 F7200.000
G1 F1200.000
G1 X83.618 Y85.517 E33.44525
G1 X84.142 Y85.145 E33.47507
G1 X84.745 Y84.873 E33.50575
G1 X85.573 Y84.706 E33.54495
G1 X114.477 Y84.710 E34.88587
G1 X115.168 Y84.846 E34.91856
G1 X115.820 Y85.123 E34.95143
G1 X116.288 Y85.438 E34.97761
G1 X116.973 Y86.106 E35.02199
G1 X117.452 Y86.823 E35.06196
G1 X117.686 Y87.442 E35.09267
G1 X117.794 Y88.075 E35.12249
G1 X117.794 Y111.928 E36.22908
G1 X117.665 Y112.632 E36.26230
G1 X117.357 Y113.357 E36.29881
G1 X116.973 Y113.893 E36.32941
G1 X116.382 Y114.483 E36.36815
G1 X115.858 Y114.855 E36.39797
G1 X115.255 Y115.127 E36.42865
G1 X114.427 Y115.294 E36.46784
G1 X85.572 Y115.294 E37.80651
G1 X84.868 Y115.165 E37.83973
G1 X84.143 Y114.857 E37.87624
G1 X83.607 Y114.473 E37.90684
G1 X83.017 Y113.882 E37.94558
G1 X82.645 Y113.358 E37.97540
G1 X82.373 Y112.755 E38.00608
G1 X82.206 Y111.927 E38.04527
G1 X82.206 Y88.072 E39.15197
G1 X82.335 Y87.368 E39.18520
G1 X82.643 Y86.643 E39.22170
G1 X83.026 Y86.109 E39.25223
G1 X83.355 Y86.411 F7200.000
G1 F1200.000
G1 X83.919 Y85.847 E39.28923
G1 X84.380 Y85.523 E39.31533
G1 X84.903 Y85.291 E39.34187
G1 X85.595 Y85.152 E39.37464
G1 X114.455 Y85.157 E40.71354
G1 X115.017 Y85.267 E40.74012
G1 X115.592 Y85.507 E40.76902
G1 X115.992 Y85.773 E40.79130
G1 X116.645 Y86.410 E40.83360
G1 X117.045 Y87.007 E40.86695
G1 X117.251 Y87.541 E40.89351
G1 X117.348 Y88.095 E40.91960
G1 X117.348 Y111.907 E42.02428
G1 X117.231 Y112.524 E42.05343
G1 X116.958 Y113.156 E42.08538
G1 X116.645 Y113.589 E42.11017
G1 X116.081 Y114.153 E42.14718
G1 X115.620 Y114.477 E42.17328
G1 X115.097 Y114.709 E42.19982
G1 X114.405 Y114.848 E42.23258
G1 X85.593 Y114.848 E43.56923
G1 X84.976 Y114.731 E43.59838
G1 X84.344 Y114.458 E43.63033
G1 X83.911 Y114.145 E43.65513
G1 X83.347 Y113.581 E43.69214
G1 X83.023 Y113.120 E43.71823
G1 X82.791 Y112.597 E43.74478
G1 X82.652 Y111.905 E43.77753
G1 X82.652 Y88.093 E44.88222
G1 X82.769 Y87.476 E44.91138
G1 X83.042 Y86.844 E44.94332
G1 X83.320 Y86.459 E44.96534
G1 X83.678 Y86.720 F7200.000
G1 F1200.000
G1 X84.220 Y86.177 E45.00094
G1 X84.615 Y85.903 E45.02321
G1 X85.058 Y85.710 E45.04564
G1 X85.617 Y85.599 E45.07208
G1 X114.432 Y85.603 E46.40889
G1 X114.906 Y85.699 E46.43134
G1 X115.366 Y85.892 E46.45447
G1 X115.697 Y86.108 E46.47279
G1 X116.317 Y86.713 E46.51297
G1 X116.639 Y87.193 E46.53981
G1 X116.816 Y87.643 E46.56224
G1 X116.901 Y88.116 E46.58451
G1 X116.901 Y111.884 E47.68720
G1 X116.798 Y112.413 E47.71218
G1 X116.560 Y112.953 E47.73956
G1 X116.317 Y113.286 E47.75867
G1 X115.780 Y113.823 E47.79394
G1 X115.385 Y114.097 E47.81621
G1 X114.942 Y114.290 E47.83864
G1 X114.383 Y114.401 E47.86507
G1 X85.616 Y114.401 E49.19968
G1 X85.087 Y114.298 E49.22466
G1 X84.547 Y114.060 E49.25204
G1 X84.214 Y113.817 E49.27115
G1 X83.677 Y113.280 E49.30641
G1 X83.403 Y112.885 E49.32869
G1 X83.210 Y112.442 E49.35112
G1 X83.099 Y111.883 E49.37755
G1 X83.099 Y88.116 E50.48019
G1 X83.202 Y87.587 E50.50517
G1 X83.440 Y87.047 E50.53255
G1 X83.643 Y86.769 E50.54854
G1 X84.000 Y87.032 F7200.000
G1 F1200.000
G1 X84.520 Y86.508 E50.58280
G1 X84.847 Y86.285 E50.60112
G1 X85.211 Y86.130 E50.61948
G1 X85.639 Y86.045 E50.63972
G1 X114.409 Y86.049 E51.97447
G1 X114.756 Y86.120 E51.99090
G1 X115.144 Y86.280 E52.01037
G1 X115.402 Y86.444 E52.02456
G1 X115.988 Y87.016 E52.06254
G1 X116.234 Y87.383 E52.08300
G1 X116.382 Y87.749 E52.10135
G1 X116.455 Y88.137 E52.11967
G1 X116.455 Y111.861 E53.22028
G1 X116.367 Y112.298 E53.24095
G1 X116.164 Y112.746 E53.26377
G1 X115.990 Y112.982 E53.27734
G1 X115.480 Y113.492 E53.31084
G1 X115.153 Y113.715 E53.32916
G1 X114.789 Y113.870 E53.34752
G1 X114.361 Y113.955 E53.36776
G1 X85.639 Y113.955 E54.70028
G1 X85.202 Y113.867 E54.72095
G1 X84.754 Y113.664 E54.74377
G1 X84.518 Y113.490 E54.75734
G1 X84.008 Y112.980 E54.79085
G1 X83.785 Y112.653 E54.80916
G1 X83.630 Y112.289 E54.82752
G1 X83.545 Y111.861 E54.84776
G1 X83.545 Y88.139 E55.94832
G1 X83.633 Y87.702 E55.96898
G1 X83.836 Y87.254 E55.99181
G1 X83.964 Y87.080 E56.00183
G1 X84.324 Y87.341 F7200.000
G1 F1200.000
G1 X84.820 Y86.840 E56.03451
G1 X85.074 Y86.670 E56.04872
G1 X85.360 Y86.551 E56.06307
G1 X85.661 Y86.491 E56.07727
G1 X114.384 Y86.496 E57.40983
G1 X114.641 Y86.551 E57.42201
G1 X114.927 Y86.670 E57.43639
G1 X115.109 Y86.782 E57.44634
G1 X115.660 Y87.320 E57.48201
G1 X115.831 Y87.575 E57.49625
G1 X115.949 Y87.860 E57.51059
G1 X116.009 Y88.160 E57.52480
G1 X116.009 Y111.839 E58.62332
G1 X115.948 Y112.141 E58.63760
G1 X115.787 Y112.505 E58.65606
G1 X115.661 Y112.679 E58.66603
G1 X115.180 Y113.160 E58.69760
G1 X114.926 Y113.330 E58.71181
G1 X114.640 Y113.449 E58.72615
G1 X114.340 Y113.509 E58.74036
G1 X85.661 Y113.509 E60.07085
G1 X85.359 Y113.448 E60.08512
G1 X84.995 Y113.287 E60.10359
G1 X84.821 Y113.161 E60.11355
G1 X84.340 Y112.680 E60.14512
G1 X84.170 Y112.426 E60.15933
G1 X84.051 Y112.140 E60.17368
G1 X83.991 Y111.840 E60.18788
G1 X83.991 Y88.161 E61.28641
G1 X84.052 Y87.859 E61.30068
G1 X84.213 Y87.495 E61.31915
G1 X84.289 Y87.389 E61.32520
G1 X84.653 Y87.645 F7200.000
G1 F1200.000
G1 X85.120 Y87.171 E61.35609
G1 X85.265 Y87.073 E61.36422
G1 X85.511 Y86.972 E61.37653
G1 X85.682 Y86.938 E61.38465
G1 X114.358 Y86.942 E62.71501
G1 X114.487 Y86.971 E62.72111
G1 X114.737 Y87.075 E62.73368
G1 X114.849 Y87.145 E62.73981
G1 X115.330 Y87.620 E62.77117
G1 X115.427 Y87.765 E62.77927
G1 X115.528 Y88.011 E62.79158
G1 X115.562 Y88.182 E62.79970
G1 X115.562 Y111.818 E63.89620
G1 X115.528 Y111.988 E63.90426
G1 X115.408 Y112.270 E63.91847
G1 X115.331 Y112.378 E63.92463
G1 X114.880 Y112.829 E63.95423
G1 X114.735 Y112.927 E63.96235
G1 X114.489 Y113.028 E63.97466
G1 X114.318 Y113.062 E63.98279
G1 X85.682 Y113.062 E65.31125
G1 X85.512 Y113.028 E65.31931
G1 X85.230 Y112.908 E65.33352
G1 X85.122 Y112.831 E65.33968
G1 X84.671 Y112.380 E65.36928
G1 X84.573 Y112.235 E65.37740
G1 X84.472 Y111.989 E65.38971
G1 X84.438 Y111.818 E65.39783
G1 X84.438 Y88.182 E66.49433
G1 X84.472 Y88.012 E66.50239
G1 X84.618 Y87.694 E66.51863
G1 X84.988 Y87.941 F7200.000
G1 F1200.000
G1 X85.420 Y87.502 E66.54722
G1 X85.704 Y87.384 E66.56150
G1 X114.296 Y87.384 E67.88792
G1 X114.580 Y87.502 E67.90220
G1 X114.998 Y87.920 E67.92963
G1 X115.116 Y88.204 E67.94391
G1 X115.116 Y111.796 E69.03837
G1 X114.998 Y112.080 E69.05265
G1 X114.580 Y112.498 E69.08008
G1 X114.296 Y112.616 E69.09436
G1 X85.704 Y112.616 E70.42079
G1 X85.420 Y112.498 E70.43506
G1 X85.002 Y112.080 E70.46250
G1 X84.884 Y111.796 E70.47677
G1 X84.884 Y88.204 E71.57124
G1 X84.962 Y87.995 E71.58160
G1 X85.364 Y88.189 F7200.000
G1 F1200.000
G1 X85.689 Y87.864 E71.60287
G1 X85.771 Y87.830 E71.60699
G1 X114.229 Y87.830 E72.92726
G1 X114.311 Y87.864 E72.93138
G1 X114.636 Y88.189 E72.95265
G1 X114.670 Y88.271 E72.95677
G1 X114.670 Y111.729 E74.04507
G1 X114.636 Y111.811 E74.04919
G1 X114.311 Y112.136 E74.07047
G1 X114.229 Y112.170 E74.07458
G1 X85.771 Y112.170 E75.39485
G1 X85.689 Y112.136 E75.39897
G1 X85.364 Y111.811 E75.42024
G1 X85.330 Y111.729 E75.42436
G1 X85.341 Y88.244 E76.51390
G1 X85.777 Y88.408 F7200.000
G1 F1200.000
G1 X85.908 Y88.277 E76.52248
G1 X114.092 Y88.277 E77.83005
G1 X114.223 Y88.408 E77.83863
G1 X114.223 Y111.592 E78.91424
G1 X114.092 Y111.723 E78.92281
G1 X85.908 Y111.723 E80.23038
G1 X85.777 Y111.592 E80.23896
G1 X85.777 Y88.468 E81.31179
G1 X86.450 Y88.950 F7200.000
G1 F1200.000
G1 X113.550 Y88.950 E82.56903
G1 X113.550 Y111.050 E83.59430
G1 X86.450 Y111.050 E84.85154
G1 X86.450 Y89.010 E85.87404
G1 X86.840 Y89.040 F7200.000
G1 E83.87404 F2400.00000
G92 E0
G1 X90.924 Y89.396 F7200.000
G1 E2.00000 F2400.00000
G1 F1200.000
G1 X113.104 Y89.396 E3.02898
G1 X113.104 Y110.604 E4.01285
G1 X86.896 Y110.604 E5.22867
G1 X86.896 Y89.396 E6.21253
G1 X90.864 Y89.396 E6.39659
G1 E4.39659 F2400.00000
G92 E0
G1 X90.444 Y97.563 F7200.000
G1 E2.00000 F2400.00000
G1 F1200.000
G1 X92.558 Y98.046 E2.10062
G1 X93.499 Y100.000 E2.20125
G1 X92.558 Y101.954 E2.30187
G1 X90.444 Y102.437 E2.40249
G1 X88.748 Y101.084 E2.50312
G1 X88.748 Y98.916 E2.60374
G1 X90.397 Y97.601 E2.70158
G1 X90.562 Y97.181 F7200.000
G1 X90.119 Y97.252
G1 F1200.000
G1 X90.334 Y97.080 E2.71433
G1 X92.867 Y97.659 E2.83490
G1 X93.995 Y100.000 E2.95547
G1 X92.867 Y102.341 E3.07604
G1 X90.334 Y102.920 E3.19660
G1 X88.302 Y101.299 E3.31717
G1 X88.302 Y98.701 E3.43774
G1 X90.072 Y97.289 E3.54277
G1 E1.54277 F2400.00000
G92 E0
G1 X106.300 Y97.289 F7200.000
G1 E2.00000 F2400.00000
G1 F1200.000
G1 X106.300 Y95.800 E2.06908
G1 X109.700 Y95.800 E2.22682
G1 X109.700 Y104.200 E2.61651
G1 X106.300 Y104.200 E2.77425
G1 X106.300 Y97.349 E3.09208
G1 X105.927 Y97.144 F7200.000
G1 X105.854 Y97.349
G1 F1200.000
G1 X105.854 Y95.354 E3.18465
G1 X110.146 Y95.354 E3.38380
G1 X110.146 Y104.646 E3.81492
G1 X105.854 Y104.646 E4.01407
G1 X105.854 Y97.409 E4.34982
G1 E2.34982 F2400.00000
G92 E0
G1 X102.700 Y97.409 F7200.000
G1 E2.00000 F2400.00000
G1 F1200.000
G1 X102.700 Y104.200 E2.31505
G1 X99.300 Y104.200 E2.47279
G1 X99.300 Y95.800 E2.86248
G1 X102.700 Y95.800 E3.02022
G1 X102.700 Y97.349 E3.09208
G1 X103.096 Y97.468 F7200.000
G1 X103.146 Y97.349
G1 F1200.000
G1 X103.146 Y104.646 E3.43062
G1 X98.854 Y104.646 E3.62977
G1 X98.854 Y95.354 E4.06089
G1 X103.146 Y95.354 E4.26004
G1 X103.146 Y97.289 E4.34982
G1 E2.34982 F2400.00000
G92 E0
G1 X103.079 Y95.175 F7200.000
G1 E2.00000 F2400.00000
