; generated by PrusaSlicer 2.2.0+linux-x64 on 2020-11-15 at 20:09:32 UTC

; Vzorovy konfiguracní soubor pro ABS, celokovovy hotend 1,75 mm, tryska 0,4 mm
; 
; Zahradnik se bavi Rebel 2
; http://www.zahradniksebavi.cz
; 
; Petr Zahradnik
; clexpert@clexpert.cz

; external perimeters extrusion width = 0.45mm
; perimeters extrusion width = 0.45mm
; infill extrusion width = 0.45mm
; solid infill extrusion width = 0.45mm
; top infill extrusion width = 0.40mm
; support material extrusion width = 0.40mm
; first layer extrusion width = 0.50mm

M201 X9000 Y9000 Z500 E10000 ; sets maximum accelerations, mm/sec^2
M203 X500 Y500 Z12 E120 ; sets maximum feedrates, mm/sec
M204 P1500 R1500 T1500 ; sets acceleration (P, T) and retract acceleration (R), mm/sec^2
M205 X10.00 Y10.00 Z0.20 E2.50 ; sets the jerk limits, mm/sec
M205 S0 T0 ; sets the minimum extruding and travel feed rate, mm/sec
M107
M190 S80 ; set bed temperature and wait for it to be reached
M104 S230 ; set temperature
G28 ; home all axes
G1 Z5 F5000 ; lift nozzle
M109 S230 ; set temperature and wait for it to be reached
G21 ; set units to millimeters
G90 ; use absolute coordinates
M82 ; use absolute distances for extrusion
G92 E0
; Filament gcode
G1 Z0.050 F7200.000
G1 E-2.00000 F2400.00000
G92 E0
G1 X84.507 Y81.028 F7200.000
G1 E2.00000 F2400.00000
G1 F1200.000
G1 X85.627 Y80.133 E2.06652
G1 X86.919 Y79.512 E2.13303
G1 X88.312 Y79.198 E2.19926
G1 X111.006 Y79.161 E3.25211
G1 X112.138 Y79.264 E3.30485
G1 X113.228 Y79.565 E3.35730
G1 X114.252 Y80.059 E3.41003
G1 X115.167 Y80.723 E3.46248
G1 X115.953 Y81.544 E3.51522
G1 X116.577 Y82.487 E3.56767
G1 X117.024 Y83.525 E3.62012
G1 X117.279 Y84.627 E3.67257
G1 X117.339 Y85.489 E3.71265
G1 X117.337 Y114.674 E5.06664
G1 X117.258 Y115.510 E5.10557
G1 X117.070 Y116.327 E5.14450
G1 X116.775 Y117.113 E5.18343
G1 X116.380 Y117.853 E5.22235
G1 X115.444 Y119.020 E5.29174
G1 X114.256 Y119.939 E5.36141
G1 X112.892 Y120.550 E5.43079
G1 X111.415 Y120.825 E5.50046
G1 X88.770 Y120.835 E6.55104
G1 X87.947 Y120.751 E6.58939
G1 X87.143 Y120.561 E6.62775
G1 X86.370 Y120.268 E6.66610
G1 X85.647 Y119.880 E6.70416
G1 X84.463 Y118.927 E6.77469
G1 X83.542 Y117.724 E6.84494
G1 X82.932 Y116.332 E6.91547
G1 X82.670 Y114.841 E6.98571
G1 X82.664 Y85.313 E8.35556
G1 X82.744 Y84.478 E8.39449
G1 X82.932 Y83.667 E8.43313
G1 X83.227 Y82.881 E8.47206
G1 X83.620 Y82.147 E8.51070
G1 X84.470 Y81.075 E8.57415
G1 X84.819 Y81.356 F7200.000
G1 F1200.000
G1 X85.899 Y80.489 E8.63840
G1 X87.107 Y79.920 E8.70032
G1 X88.405 Y79.637 E8.76195
G1 X111.006 Y79.607 E9.81048
G1 X112.062 Y79.704 E9.85966
G1 X113.083 Y79.988 E9.90884
G1 X114.037 Y80.450 E9.95802
G1 X114.893 Y81.076 E10.00720
G1 X115.622 Y81.845 E10.05638
G1 X116.199 Y82.727 E10.10528
G1 X116.612 Y83.703 E10.15446
G1 X116.843 Y84.738 E10.20364
G1 X116.891 Y114.656 E11.59162
G1 X116.817 Y115.443 E11.62832
G1 X116.638 Y116.214 E11.66501
G1 X116.360 Y116.948 E11.70143
G1 X115.984 Y117.644 E11.73813
G1 X115.106 Y118.727 E11.80281
G1 X113.998 Y119.573 E11.86748
G1 X112.722 Y120.135 E11.93216
G1 X111.356 Y120.382 E11.99655
G1 X88.790 Y120.389 E13.04345
G1 X88.015 Y120.310 E13.07960
G1 X87.263 Y120.131 E13.11546
G1 X86.535 Y119.853 E13.15160
G1 X85.856 Y119.484 E13.18747
G1 X84.765 Y118.597 E13.25270
G1 X83.912 Y117.472 E13.31820
G1 X83.352 Y116.182 E13.38343
G1 X83.114 Y114.790 E13.44893
G1 X83.110 Y85.338 E14.81530
G1 X83.184 Y84.551 E14.85200
G1 X83.362 Y83.786 E14.88842
G1 X83.640 Y83.052 E14.92484
G1 X84.016 Y82.356 E14.96153
G1 X84.781 Y81.402 E15.01826
G1 E13.01826 F2400.00000
G92 E0
G1 X83.793 Y83.904 F7200.000
G1 E2.00000 F2400.00000
G1 F1200.000
G1 X84.410 Y82.568 E2.06827
G1 X85.186 Y81.612 E2.12538
G1 X86.162 Y80.852 E2.18277
G1 X87.278 Y80.333 E2.23989
G1 X88.489 Y80.078 E2.29727
G1 X111.006 Y80.054 E3.34190
G1 X111.986 Y80.144 E3.38758
G1 X112.934 Y80.409 E3.43325
G1 X113.819 Y80.840 E3.47893
G1 X114.612 Y81.424 E3.52461
G1 X115.287 Y82.141 E3.57028
G1 X115.822 Y82.968 E3.61596
G1 X116.199 Y83.877 E3.66164
G1 X116.406 Y84.840 E3.70731
G1 X116.445 Y114.638 E5.08976
G1 X116.209 Y116.091 E5.15802
G1 X115.944 Y116.785 E5.19250
G1 X115.590 Y117.432 E5.22671
G1 X114.773 Y118.428 E5.28649
G1 X113.749 Y119.202 E5.34600
G1 X112.568 Y119.716 E5.40577
G1 X111.304 Y119.938 E5.46528
G1 X88.816 Y119.943 E6.50860
G1 X87.382 Y119.700 E6.57607
G1 X86.068 Y119.090 E6.64328
G1 X85.064 Y118.264 E6.70358
G1 X84.284 Y117.224 E6.76389
G1 X83.773 Y116.029 E6.82420
G1 X83.559 Y114.747 E6.88450
G1 X83.556 Y85.356 E8.24803
G1 X83.783 Y83.963 E8.31351
G1 X84.498 Y84.105 F7200.000
G1 F1200.000
G1 X84.528 Y83.954 E8.32067
G1 X84.763 Y83.398 E8.34868
G1 X85.069 Y82.874 E8.37683
G1 X86.374 Y81.569 E8.46243
G1 X86.898 Y81.263 E8.49059
G1 X87.454 Y81.028 E8.51860
G1 X88.529 Y80.813 E8.56947
G1 X111.521 Y80.818 E9.63610
G1 X112.431 Y80.993 E9.67912
G1 X113.248 Y81.339 E9.72026
G1 X113.883 Y81.771 E9.75591
G1 X114.630 Y82.500 E9.80430
G1 X115.268 Y83.458 E9.85775
G1 X115.548 Y84.206 E9.89476
G1 X115.680 Y84.962 E9.93036
G1 X115.687 Y114.971 E11.32257
G1 X115.472 Y116.046 E11.37342
G1 X115.237 Y116.602 E11.40143
G1 X114.931 Y117.126 E11.42959
G1 X113.626 Y118.431 E11.51519
G1 X113.102 Y118.737 E11.54335
G1 X112.546 Y118.972 E11.57136
G1 X111.471 Y119.187 E11.62221
G1 X88.529 Y119.187 E12.68655
G1 X87.454 Y118.972 E12.73740
G1 X86.898 Y118.737 E12.76541
G1 X86.374 Y118.431 E12.79357
G1 X85.069 Y117.126 E12.87917
G1 X84.763 Y116.602 E12.90733
G1 X84.528 Y116.046 E12.93534
G1 X84.313 Y114.971 E12.98619
G1 X84.313 Y85.029 E14.37528
G1 X84.486 Y84.164 E14.41619
G1 X84.919 Y84.250 F7200.000
G1 F1200.000
G1 X84.948 Y84.107 E14.42298
G1 X85.168 Y83.586 E14.44923
G1 X85.439 Y83.125 E14.47403
G1 X86.625 Y81.939 E14.55183
G1 X87.086 Y81.668 E14.57663
G1 X87.607 Y81.448 E14.60288
G1 X88.551 Y81.260 E14.64755
G1 X111.498 Y81.264 E15.71212
G1 X112.321 Y81.426 E15.75101
G1 X113.051 Y81.740 E15.78789
G1 X113.585 Y82.104 E15.81789
G1 X114.301 Y82.803 E15.86430
G1 X114.860 Y83.641 E15.91102
G1 X115.112 Y84.304 E15.94394
G1 X115.237 Y85.020 E15.97764
G1 X115.240 Y114.949 E17.36614
G1 X115.052 Y115.893 E17.41080
G1 X114.832 Y116.414 E17.43705
G1 X114.561 Y116.875 E17.46184
G1 X113.375 Y118.061 E17.53965
G1 X112.914 Y118.332 E17.56444
G1 X112.393 Y118.552 E17.59069
G1 X111.449 Y118.740 E17.63535
G1 X88.551 Y118.740 E18.69766
G1 X87.607 Y118.552 E18.74231
G1 X87.086 Y118.332 E18.76856
G1 X86.625 Y118.061 E18.79335
G1 X85.439 Y116.875 E18.87116
G1 X85.168 Y116.414 E18.89596
G1 X84.948 Y115.893 E18.92221
G1 X84.760 Y114.949 E18.96686
G1 X84.760 Y85.051 E20.35392
G1 X84.907 Y84.309 E20.38900
G1 X85.341 Y84.395 F7200.000
G1 F1200.000
G1 X85.368 Y84.258 E20.39548
G1 X85.560 Y83.799 E20.41859
G1 X85.810 Y83.376 E20.44135
G1 X86.876 Y82.310 E20.51134
G1 X87.299 Y82.060 E20.53410
G1 X87.758 Y81.868 E20.55721
G1 X88.573 Y81.706 E20.59574
G1 X111.477 Y81.710 E21.65830
G1 X112.168 Y81.846 E21.69099
G1 X112.820 Y82.123 E21.72386
G1 X113.288 Y82.438 E21.75005
G1 X113.973 Y83.106 E21.79442
G1 X114.452 Y83.823 E21.83440
G1 X114.686 Y84.442 E21.86510
G1 X114.794 Y85.075 E21.89492
G1 X114.794 Y114.927 E23.27983
G1 X114.632 Y115.742 E23.31836
G1 X114.440 Y116.201 E23.34146
G1 X114.190 Y116.624 E23.36423
G1 X113.124 Y117.690 E23.43421
G1 X112.701 Y117.940 E23.45697
G1 X112.242 Y118.132 E23.48008
G1 X111.427 Y118.294 E23.51860
G1 X88.573 Y118.294 E24.57888
G1 X87.758 Y118.132 E24.61740
G1 X87.299 Y117.940 E24.64051
G1 X86.876 Y117.690 E24.66327
G1 X85.810 Y116.624 E24.73326
G1 X85.560 Y116.201 E24.75602
G1 X85.368 Y115.742 E24.77912
G1 X85.206 Y114.927 E24.81765
G1 X85.206 Y85.073 E26.20267
G1 X85.329 Y84.454 E26.23193
G1 X85.763 Y84.541 F7200.000
G1 F1200.000
G1 X85.789 Y84.408 E26.23818
G1 X85.953 Y84.012 E26.25809
G1 X86.180 Y83.627 E26.27880
G1 X87.127 Y82.680 E26.34096
G1 X87.512 Y82.453 E26.36167
G1 X87.908 Y82.289 E26.38159
G1 X88.595 Y82.152 E26.41406
G1 X111.455 Y82.157 E27.47461
G1 X112.017 Y82.267 E27.50119
G1 X112.592 Y82.507 E27.53009
G1 X112.992 Y82.773 E27.55236
G1 X113.645 Y83.410 E27.59467
G1 X114.045 Y84.007 E27.62802
G1 X114.251 Y84.541 E27.65457
G1 X114.348 Y85.095 E27.68067
G1 X114.348 Y114.905 E29.06364
G1 X114.211 Y115.592 E29.09610
G1 X114.047 Y115.988 E29.11602
G1 X113.820 Y116.373 E29.13673
G1 X112.873 Y117.320 E29.19889
G1 X112.488 Y117.547 E29.21960
G1 X112.092 Y117.711 E29.23952
G1 X111.405 Y117.848 E29.27198
G1 X88.595 Y117.848 E30.33022
G1 X87.908 Y117.711 E30.36268
G1 X87.512 Y117.547 E30.38260
G1 X87.127 Y117.320 E30.40331
G1 X86.180 Y116.373 E30.46547
G1 X85.953 Y115.988 E30.48618
G1 X85.789 Y115.592 E30.50609
G1 X85.652 Y114.905 E30.53856
G1 X85.652 Y85.095 E31.92155
G1 X85.751 Y84.599 E31.94498
G1 X86.184 Y84.686 F7200.000
G1 F1200.000
G1 X86.210 Y84.559 E31.95096
G1 X86.359 Y84.198 E31.96909
G1 X86.549 Y83.880 E31.98627
G1 X87.380 Y83.049 E32.04081
G1 X87.698 Y82.859 E32.05798
G1 X88.059 Y82.710 E32.07611
G1 X88.617 Y82.599 E32.10250
G1 X111.432 Y82.603 E33.16095
G1 X111.906 Y82.699 E33.18340
G1 X112.366 Y82.892 E33.20653
G1 X112.697 Y83.108 E33.22485
G1 X113.317 Y83.713 E33.26504
G1 X113.639 Y84.193 E33.29187
G1 X113.816 Y84.643 E33.31431
G1 X113.901 Y85.116 E33.33658
G1 X113.901 Y114.883 E34.71757
G1 X113.790 Y115.441 E34.74395
G1 X113.641 Y115.802 E34.76208
G1 X113.451 Y116.120 E34.77925
G1 X112.620 Y116.951 E34.83379
G1 X112.302 Y117.141 E34.85097
G1 X111.941 Y117.290 E34.86910
G1 X111.383 Y117.401 E34.89547
G1 X88.617 Y117.401 E35.95168
G1 X88.059 Y117.290 E35.97806
G1 X87.698 Y117.141 E35.99618
G1 X87.380 Y116.951 E36.01336
G1 X86.549 Y116.120 E36.06790
G1 X86.359 Y115.802 E36.08508
G1 X86.210 Y115.441 E36.10320
G1 X86.099 Y114.883 E36.12958
G1 X86.099 Y85.117 E37.51054
G1 X86.173 Y84.744 E37.52814
G1 X86.606 Y84.831 F7200.000
G1 F1200.000
G1 X86.630 Y84.710 E37.53387
G1 X86.765 Y84.385 E37.55017
G1 X86.916 Y84.134 E37.56376
G1 X87.634 Y83.416 E37.61087
G1 X87.885 Y83.265 E37.62445
G1 X88.210 Y83.130 E37.64075
G1 X88.639 Y83.045 E37.66105
G1 X111.409 Y83.049 E38.71744
G1 X111.756 Y83.120 E38.73387
G1 X112.144 Y83.280 E38.75334
G1 X112.402 Y83.444 E38.76753
G1 X112.988 Y84.016 E38.80552
G1 X113.234 Y84.383 E38.82597
G1 X113.382 Y84.749 E38.84432
G1 X113.455 Y85.137 E38.86264
G1 X113.455 Y114.861 E40.24162
G1 X113.370 Y115.290 E40.26191
G1 X113.235 Y115.615 E40.27821
G1 X113.084 Y115.866 E40.29179
G1 X112.366 Y116.584 E40.33890
G1 X112.115 Y116.735 E40.35249
G1 X111.790 Y116.870 E40.36879
G1 X111.361 Y116.955 E40.38908
G1 X88.639 Y116.955 E41.44325
G1 X88.210 Y116.870 E41.46355
G1 X87.885 Y116.735 E41.47984
G1 X87.634 Y116.584 E41.49343
G1 X86.916 Y115.866 E41.54054
G1 X86.765 Y115.615 E41.55413
G1 X86.630 Y115.290 E41.57043
G1 X86.545 Y114.861 E41.59072
G1 X86.545 Y85.139 E42.96964
G1 X86.595 Y84.890 E42.98142
G1 X87.028 Y84.976 F7200.000
G1 F1200.000
G1 X87.051 Y84.860 E42.98689
G1 X87.170 Y84.573 E43.00130
G1 X87.282 Y84.391 E43.01121
G1 X87.891 Y83.782 E43.05118
G1 X88.073 Y83.670 E43.06109
G1 X88.360 Y83.551 E43.07550
G1 X88.661 Y83.491 E43.08971
G1 X111.384 Y83.496 E44.14391
G1 X111.641 Y83.551 E44.15609
G1 X111.927 Y83.670 E44.17047
G1 X112.109 Y83.782 E44.18042
G1 X112.660 Y84.320 E44.21609
G1 X112.831 Y84.575 E44.23033
G1 X112.949 Y84.860 E44.24467
G1 X113.009 Y85.160 E44.25888
G1 X113.009 Y114.840 E45.63577
G1 X112.949 Y115.140 E45.64997
G1 X112.830 Y115.427 E45.66439
G1 X112.718 Y115.609 E45.67430
G1 X112.109 Y116.218 E45.71426
G1 X111.927 Y116.330 E45.72417
G1 X111.640 Y116.449 E45.73859
G1 X111.340 Y116.509 E45.75279
G1 X88.660 Y116.509 E46.80493
G1 X88.360 Y116.449 E46.81914
G1 X88.073 Y116.330 E46.83356
G1 X87.891 Y116.218 E46.84347
G1 X87.282 Y115.609 E46.88343
G1 X87.170 Y115.427 E46.89334
G1 X87.051 Y115.140 E46.90775
G1 X86.991 Y114.840 E46.92196
G1 X86.991 Y85.160 E48.29885
G1 X87.016 Y85.035 E48.30480
G1 X87.450 Y85.121 F7200.000
G1 F1200.000
G1 X87.472 Y85.011 E48.31001
G1 X87.575 Y84.763 E48.32245
G1 X87.645 Y84.652 E48.32856
G1 X88.152 Y84.145 E48.36182
G1 X88.263 Y84.075 E48.36792
G1 X88.511 Y83.972 E48.38036
G1 X88.682 Y83.938 E48.38848
G1 X111.358 Y83.942 E49.44048
G1 X111.487 Y83.971 E49.44658
G1 X111.737 Y84.075 E49.45915
G1 X111.849 Y84.145 E49.46528
G1 X112.330 Y84.620 E49.49665
G1 X112.427 Y84.765 E49.50474
G1 X112.528 Y85.011 E49.51705
G1 X112.562 Y85.182 E49.52517
G1 X112.562 Y114.818 E50.90003
G1 X112.528 Y114.989 E50.90815
G1 X112.425 Y115.237 E50.92059
G1 X112.355 Y115.348 E50.92669
G1 X111.848 Y115.855 E50.95995
G1 X111.737 Y115.925 E50.96605
G1 X111.489 Y116.028 E50.97849
G1 X111.318 Y116.062 E50.98661
G1 X88.682 Y116.062 E52.03672
G1 X88.511 Y116.028 E52.04484
G1 X88.263 Y115.925 E52.05728
G1 X88.152 Y115.855 E52.06338
G1 X87.645 Y115.348 E52.09664
G1 X87.575 Y115.237 E52.10274
G1 X87.472 Y114.989 E52.11518
G1 X87.438 Y114.818 E52.12331
G1 X87.438 Y85.180 E53.49828
G1 X87.884 Y85.204 F7200.000
G1 F1200.000
G1 X88.002 Y84.920 E53.51256
G1 X88.420 Y84.502 E53.53999
G1 X88.704 Y84.384 E53.55427
G1 X111.296 Y84.384 E54.60234
G1 X111.580 Y84.502 E54.61662
G1 X111.998 Y84.920 E54.64405
G1 X112.116 Y85.204 E54.65833
G1 X112.116 Y114.796 E56.03115
G1 X111.998 Y115.080 E56.04543
G1 X111.580 Y115.498 E56.07286
G1 X111.296 Y115.616 E56.08714
G1 X88.704 Y115.616 E57.13521
G1 X88.420 Y115.498 E57.14948
G1 X88.002 Y115.080 E57.17692
G1 X87.884 Y114.796 E57.19119
G1 X87.884 Y85.264 E58.56123
G1 X88.330 Y85.271 F7200.000
G1 F1200.000
G1 X88.364 Y85.189 E58.56535
G1 X88.689 Y84.864 E58.58662
G1 X88.771 Y84.830 E58.59074
G1 X111.229 Y84.830 E59.63265
G1 X111.311 Y84.864 E59.63677
G1 X111.636 Y85.189 E59.65804
G1 X111.670 Y85.271 E59.66216
G1 X111.670 Y114.729 E61.02882
G1 X111.636 Y114.811 E61.03294
G1 X111.311 Y115.136 E61.05422
G1 X111.229 Y115.170 E61.05834
G1 X88.771 Y115.170 E62.10025
G1 X88.689 Y115.136 E62.10437
G1 X88.364 Y114.811 E62.12564
G1 X88.330 Y114.729 E62.12976
G1 X88.330 Y85.331 E63.49363
G1 X88.777 Y85.408 F7200.000
G1 F1200.000
G1 X88.908 Y85.277 E63.50221
G1 X111.092 Y85.277 E64.53143
G1 X111.223 Y85.408 E64.54000
G1 X111.223 Y114.592 E65.89397
G1 X111.092 Y114.723 E65.90255
G1 X88.908 Y114.723 E66.93176
G1 X88.777 Y114.592 E66.94034
G1 X88.777 Y85.468 E68.29152
G1 X89.450 Y85.950 F7200.000
G1 F1200.000
G1 X110.550 Y85.950 E69.27040
G1 X110.550 Y114.050 E70.57404
G1 X89.450 Y114.050 E71.55292
G1 X89.450 Y86.010 E72.85377
G1 X89.831 Y86.072 F7200.000
G1 E70.85377 F2400.00000
G92 E0
G1 X89.896 Y92.712 F7200.000
G1 E2.00000 F2400.00000
G1 F1200.000
G1 X89.896 Y86.396 E2.29302
G1 X110.104 Y86.396 E3.23049
G1 X110.104 Y113.604 E4.49271
G1 X89.896 Y113.604 E5.43018
G1 X89.896 Y92.772 E6.39659
G1 E4.39659 F2400.00000
G92 E0
G1 X94.300 Y95.800 F7200.000
G1 E2.00000 F2400.00000
G1 F1200.000
G1 X97.700 Y95.800 E2.15773
G1 X97.700 Y104.200 E2.54743
G1 X94.300 Y104.200 E2.70517
G1 X94.300 Y95.860 E3.09208
G1 X94.249 Y95.403 F7200.000
G1 X93.854 Y95.860
G1 F1200.000
G1 X93.854 Y95.354 E3.11557
G1 X98.146 Y95.354 E3.31472
G1 X98.146 Y104.646 E3.74584
G1 X93.854 Y104.646 E3.94499
G1 X93.854 Y95.920 E4.34982
G1 E2.34982 F2400.00000
G92 E0
G1 X102.748 Y98.916 F7200.000
G1 E2.00000 F2400.00000
G1 F1200.000
G1 X104.444 Y97.563 E2.10062
G1 X106.558 Y98.046 E2.20125
G1 X107.499 Y100.000 E2.30187
G1 X106.558 Y101.954 E2.40249
G1 X104.444 Y102.437 E2.50312
G1 X102.748 Y101.084 E2.60374
G1 X102.748 Y98.976 E2.70158
G1 X102.523 Y98.585 F7200.000
G1 X102.302 Y98.976
G1 F1200.000
G1 X102.302 Y98.701 E2.71434
G1 X104.334 Y97.080 E2.83490
G1 X106.867 Y97.659 E2.95547
G1 X107.995 Y100.000 E3.07604
G1 X106.867 Y102.341 E3.19661
G1 X104.334 Y102.920 E3.31717
G1 X102.302 Y101.299 E3.43774
G1 X102.302 Y99.036 E3.54277
G1 X102.123 Y99.278 F7200.000
G1 F1200.000
G1 X98.526 Y95.680 E3.77919
G1 X98.526 Y96.313 E3.80858
G1 X101.922 Y99.709 E4.03180
G1 X101.922 Y100.342 E4.06118
G1 X98.526 Y96.945 E4.28440
G1 X98.526 Y97.577 E4.31378
G1 X102.123 Y101.175 E4.55021
G1 E2.55021 F2400.00000
G92 E0
G1 X109.925 Y100.757 F7200.000
G1 E2.00000 F2400.00000
G1 F1200.000
G1 X107.717 Y98.549 E2.14510
G1 X108.305 Y99.769 E2.20801
G1 X109.724 Y101.188 E2.30131
G1 X109.724 Y101.821 E2.33070
G1 X108.249 Y100.346 E2.42762
