; generated by PrusaSlicer 2.2.0+linux-x64 on 2020-11-15 at 22:00:01 UTC

; Vzorovy konfiguracní soubor pro ABS, celokovovy hotend 1,75 mm, tryska 0,4 mm
; 
; Zahradnik se bavi Rebel 2
; http://www.zahradniksebavi.cz
; 
; Petr Zahradnik
; clexpert@clexpert.cz

; external perimeters extrusion width = 0.45mm
; perimeters extrusion width = 0.45mm
; infill extrusion width = 0.45mm
; solid infill extrusion width = 0.45mm
; top infill extrusion width = 0.40mm
; support material extrusion width = 0.40mm
; first layer extrusion width = 0.50mm

M201 X9000 Y9000 Z500 E10000 ; sets maximum accelerations, mm/sec^2
M203 X500 Y500 Z12 E120 ; sets maximum feedrates, mm/sec
M204 P1500 R1500 T1500 ; sets acceleration (P, T) and retract acceleration (R), mm/sec^2
M205 X10.00 Y10.00 Z0.20 E2.50 ; sets the jerk limits, mm/sec
M205 S0 T0 ; sets the minimum extruding and travel feed rate, mm/sec
M107
M190 S80 ; set bed temperature and wait for it to be reached
M104 S230 ; set temperature
G28 ; home all axes
G1 Z5 F5000 ; lift nozzle
M109 S230 ; set temperature and wait for it to be reached
G21 ; set units to millimeters
G90 ; use absolute coordinates
M82 ; use absolute distances for extrusion
G92 E0
; Filament gcode
G1 Z0.050 F7200.000
G1 E-2.00000 F2400.00000
G92 E0
G1 X86.412 Y83.626 F7200.000
G1 E2.00000 F2400.00000
G1 F1200.000
G1 X87.507 Y82.710 E2.06623
G1 X88.785 Y82.061 E2.13275
G1 X90.170 Y81.716 E2.19898
G1 X90.982 Y81.661 E2.23675
G1 X109.006 Y81.661 E3.07292
G1 X110.114 Y81.760 E3.12451
G1 X111.193 Y82.052 E3.17639
G1 X112.204 Y82.530 E3.22826
G1 X113.110 Y83.174 E3.27985
G1 X113.894 Y83.972 E3.33172
G1 X114.523 Y84.889 E3.38331
G1 X114.984 Y85.908 E3.43519
G1 X115.257 Y86.985 E3.48677
G1 X115.339 Y87.982 E3.53319
G1 X115.336 Y112.180 E4.65579
G1 X115.263 Y112.979 E4.69299
G1 X115.088 Y113.768 E4.73048
G1 X114.816 Y114.522 E4.76768
G1 X114.451 Y115.236 E4.80488
G1 X113.532 Y116.432 E4.87484
G1 X112.363 Y117.374 E4.94451
G1 X110.998 Y118.016 E5.01446
G1 X109.527 Y118.317 E5.08413
G1 X90.745 Y118.334 E5.95548
G1 X89.202 Y118.079 E6.02801
G1 X87.764 Y117.451 E6.10083
G1 X86.555 Y116.519 E6.17165
G1 X85.600 Y115.320 E6.24275
G1 X84.963 Y113.933 E6.31357
G1 X84.675 Y112.428 E6.38467
G1 X84.664 Y87.801 E7.52717
G1 X84.739 Y87.009 E7.56408
G1 X84.914 Y86.226 E7.60128
G1 X85.187 Y85.472 E7.63848
G1 X85.549 Y84.764 E7.67540
G1 X86.375 Y83.674 E7.73884
G1 E5.73884 F2400.00000
G92 E0
G1 X85.347 Y86.338 F7200.000
G1 E2.00000 F2400.00000
G1 F1200.000
G1 X85.953 Y84.958 E2.06992
G1 X86.767 Y83.900 E2.13183
G1 X87.793 Y83.056 E2.19347
G1 X88.982 Y82.464 E2.25510
G1 X90.274 Y82.152 E2.31674
G1 X109.006 Y82.107 E3.18578
G1 X110.044 Y82.201 E3.23413
G1 X111.049 Y82.475 E3.28248
G1 X111.991 Y82.923 E3.33083
G1 X112.838 Y83.529 E3.37917
G1 X113.566 Y84.275 E3.42752
G1 X114.151 Y85.137 E3.47587
G1 X114.576 Y86.095 E3.52450
G1 X114.825 Y87.107 E3.57284
G1 X114.893 Y87.985 E3.61370
G1 X114.890 Y112.162 E4.73532
G1 X114.655 Y113.657 E4.80551
G1 X114.047 Y115.042 E4.87571
G1 X113.191 Y116.142 E4.94038
G1 X112.095 Y117.014 E5.00533
G1 X110.825 Y117.603 E5.07029
G1 X109.452 Y117.875 E5.13524
G1 X90.772 Y117.888 E6.00184
G1 X89.309 Y117.645 E6.07066
G1 X87.958 Y117.047 E6.13920
G1 X86.841 Y116.174 E6.20498
G1 X85.964 Y115.060 E6.27076
G1 X85.377 Y113.762 E6.33681
G1 X85.119 Y112.368 E6.40259
G1 X85.110 Y87.820 E7.54144
G1 X85.337 Y86.397 E7.60830
G1 X85.776 Y86.467 F7200.000
G1 F1200.000
G1 X86.352 Y85.161 E7.67453
G1 X87.109 Y84.189 E7.73165
G1 X88.069 Y83.410 E7.78904
G1 X89.180 Y82.867 E7.84642
G1 X90.380 Y82.589 E7.90354
G1 X109.006 Y82.554 E8.76766
G1 X109.975 Y82.642 E8.81280
G1 X110.907 Y82.899 E8.85768
G1 X111.780 Y83.317 E8.90255
G1 X112.569 Y83.886 E8.94770
G1 X113.240 Y84.582 E8.99258
G1 X113.781 Y85.391 E9.03772
G1 X114.167 Y86.278 E9.08260
G1 X114.391 Y87.225 E9.12774
G1 X114.446 Y87.989 E9.16329
G1 X114.444 Y112.150 E10.28415
G1 X114.222 Y113.547 E10.34977
G1 X113.648 Y114.839 E10.41538
G1 X112.847 Y115.856 E10.47542
G1 X111.828 Y116.654 E10.53546
G1 X110.650 Y117.190 E10.59550
G1 X109.385 Y117.433 E10.65528
G1 X90.798 Y117.443 E11.51757
G1 X89.431 Y117.216 E11.58185
G1 X88.161 Y116.648 E11.64641
G1 X87.132 Y115.834 E11.70724
G1 X86.328 Y114.799 E11.76808
G1 X85.794 Y113.601 E11.82892
G1 X85.562 Y112.310 E11.88976
G1 X85.556 Y87.844 E13.02479
G1 X85.767 Y86.527 E13.08671
G1 X86.485 Y86.670 F7200.000
G1 F1200.000
G1 X86.528 Y86.454 E13.09691
G1 X86.763 Y85.898 E13.12492
G1 X87.069 Y85.374 E13.15307
G1 X88.374 Y84.069 E13.23867
G1 X88.898 Y83.763 E13.26683
G1 X89.454 Y83.528 E13.29484
G1 X90.529 Y83.313 E13.34572
G1 X109.521 Y83.318 E14.22677
G1 X110.431 Y83.493 E14.26979
G1 X111.248 Y83.839 E14.31093
G1 X111.883 Y84.271 E14.34658
G1 X112.630 Y85.000 E14.39497
G1 X113.268 Y85.957 E14.44834
G1 X113.535 Y86.662 E14.48332
G1 X113.676 Y87.419 E14.51903
G1 X113.687 Y112.471 E15.68128
G1 X113.472 Y113.546 E15.73213
G1 X113.237 Y114.102 E15.76014
G1 X112.931 Y114.626 E15.78830
G1 X111.626 Y115.931 E15.87390
G1 X111.102 Y116.237 E15.90206
G1 X110.546 Y116.472 E15.93006
G1 X109.471 Y116.687 E15.98092
G1 X90.529 Y116.687 E16.85969
G1 X89.454 Y116.472 E16.91054
G1 X88.898 Y116.237 E16.93855
G1 X88.374 Y115.931 E16.96671
G1 X87.069 Y114.626 E17.05231
G1 X86.763 Y114.102 E17.08047
G1 X86.528 Y113.546 E17.10847
G1 X86.313 Y112.471 E17.15933
G1 X86.313 Y87.529 E18.31645
G1 X86.473 Y86.728 E18.35432
G1 X86.906 Y86.815 F7200.000
G1 F1200.000
G1 X86.948 Y86.607 E18.36415
G1 X87.168 Y86.086 E18.39040
G1 X87.439 Y85.625 E18.41520
G1 X88.625 Y84.439 E18.49301
G1 X89.086 Y84.168 E18.51780
G1 X89.607 Y83.948 E18.54405
G1 X90.551 Y83.760 E18.58872
G1 X109.498 Y83.764 E19.46773
G1 X110.321 Y83.926 E19.50661
G1 X111.051 Y84.240 E19.54350
G1 X111.585 Y84.604 E19.57349
G1 X112.301 Y85.303 E19.61990
G1 X112.860 Y86.139 E19.66654
G1 X113.111 Y86.801 E19.69936
G1 X113.233 Y87.478 E19.73131
G1 X113.240 Y112.449 E20.88978
G1 X113.052 Y113.393 E20.93444
G1 X112.832 Y113.914 E20.96069
G1 X112.561 Y114.375 E20.98548
G1 X111.375 Y115.561 E21.06329
G1 X110.914 Y115.832 E21.08808
G1 X110.393 Y116.052 E21.11433
G1 X109.449 Y116.240 E21.15899
G1 X90.551 Y116.240 E22.03573
G1 X89.607 Y116.052 E22.08038
G1 X89.086 Y115.832 E22.10663
G1 X88.625 Y115.561 E22.13142
G1 X87.439 Y114.375 E22.20923
G1 X87.168 Y113.914 E22.23403
G1 X86.948 Y113.393 E22.26028
G1 X86.760 Y112.449 E22.30493
G1 X86.760 Y87.551 E23.46002
G1 X86.895 Y86.874 E23.49206
G1 X87.328 Y86.960 F7200.000
G1 F1200.000
G1 X87.368 Y86.758 E23.50159
G1 X87.560 Y86.299 E23.52470
G1 X87.810 Y85.876 E23.54746
G1 X88.876 Y84.810 E23.61744
G1 X89.299 Y84.560 E23.64021
G1 X89.758 Y84.368 E23.66331
G1 X90.573 Y84.206 E23.70185
G1 X109.477 Y84.210 E24.57884
G1 X110.168 Y84.346 E24.61153
G1 X110.820 Y84.623 E24.64440
G1 X111.288 Y84.938 E24.67058
G1 X111.973 Y85.606 E24.71496
G1 X112.452 Y86.323 E24.75496
G1 X112.675 Y86.901 E24.78372
G1 X112.791 Y87.538 E24.81373
G1 X112.794 Y112.427 E25.96841
G1 X112.632 Y113.242 E26.00693
G1 X112.440 Y113.701 E26.03003
G1 X112.190 Y114.124 E26.05280
G1 X111.124 Y115.190 E26.12278
G1 X110.701 Y115.440 E26.14554
G1 X110.242 Y115.632 E26.16865
G1 X109.427 Y115.794 E26.20717
G1 X90.573 Y115.794 E27.08188
G1 X89.758 Y115.632 E27.12040
G1 X89.299 Y115.440 E27.14351
G1 X88.876 Y115.190 E27.16627
G1 X87.810 Y114.124 E27.23626
G1 X87.560 Y113.701 E27.25902
G1 X87.368 Y113.242 E27.28212
G1 X87.206 Y112.427 E27.32065
G1 X87.206 Y87.573 E28.47371
G1 X87.316 Y87.019 E28.49992
G1 X87.750 Y87.105 F7200.000
G1 F1200.000
G1 X87.789 Y86.908 E28.50921
G1 X87.953 Y86.512 E28.52913
G1 X88.180 Y86.127 E28.54984
G1 X89.127 Y85.180 E28.61200
G1 X89.512 Y84.953 E28.63271
G1 X89.908 Y84.789 E28.65263
G1 X90.595 Y84.652 E28.68510
G1 X109.455 Y84.657 E29.56008
G1 X110.017 Y84.767 E29.58665
G1 X110.592 Y85.007 E29.61556
G1 X110.992 Y85.273 E29.63783
G1 X111.645 Y85.910 E29.68014
G1 X112.045 Y86.507 E29.71349
G1 X112.251 Y87.041 E29.74004
G1 X112.348 Y87.595 E29.76614
G1 X112.348 Y112.405 E30.91715
G1 X112.211 Y113.092 E30.94961
G1 X112.047 Y113.488 E30.96953
G1 X111.820 Y113.873 E30.99023
G1 X110.873 Y114.820 E31.05240
G1 X110.488 Y115.047 E31.07310
G1 X110.092 Y115.211 E31.09302
G1 X109.405 Y115.348 E31.12548
G1 X90.595 Y115.348 E31.99815
G1 X89.908 Y115.211 E32.03062
G1 X89.512 Y115.047 E32.05053
G1 X89.127 Y114.820 E32.07124
G1 X88.180 Y113.873 E32.13340
G1 X87.953 Y113.488 E32.15411
G1 X87.789 Y113.092 E32.17403
G1 X87.652 Y112.405 E32.20649
G1 X87.652 Y87.595 E33.35752
G1 X87.738 Y87.164 E33.37790
G1 X88.172 Y87.250 F7200.000
G1 F1200.000
G1 X88.210 Y87.059 E33.38694
G1 X88.359 Y86.698 E33.40506
G1 X88.549 Y86.380 E33.42224
G1 X89.380 Y85.549 E33.47678
G1 X89.698 Y85.359 E33.49395
G1 X90.059 Y85.210 E33.51208
G1 X90.617 Y85.099 E33.53847
G1 X109.432 Y85.103 E34.41135
G1 X109.906 Y85.199 E34.43380
G1 X110.366 Y85.392 E34.45693
G1 X110.697 Y85.608 E34.47525
G1 X111.317 Y86.213 E34.51544
G1 X111.639 Y86.693 E34.54227
G1 X111.816 Y87.143 E34.56471
G1 X111.901 Y87.616 E34.58698
G1 X111.901 Y112.383 E35.73601
G1 X111.790 Y112.941 E35.76238
G1 X111.641 Y113.302 E35.78051
G1 X111.451 Y113.620 E35.79769
G1 X110.620 Y114.451 E35.85223
G1 X110.302 Y114.641 E35.86940
G1 X109.941 Y114.790 E35.88753
G1 X109.383 Y114.901 E35.91391
G1 X90.617 Y114.901 E36.78455
G1 X90.059 Y114.790 E36.81092
G1 X89.698 Y114.641 E36.82905
G1 X89.380 Y114.451 E36.84623
G1 X88.549 Y113.620 E36.90076
G1 X88.359 Y113.302 E36.91794
G1 X88.210 Y112.941 E36.93607
G1 X88.099 Y112.383 E36.96245
G1 X88.099 Y87.617 E38.11144
G1 X88.160 Y87.309 E38.12600
G1 X88.594 Y87.395 F7200.000
G1 F1200.000
G1 X88.630 Y87.210 E38.13477
G1 X88.765 Y86.885 E38.15107
G1 X88.916 Y86.634 E38.16466
G1 X89.634 Y85.916 E38.21177
G1 X89.885 Y85.765 E38.22536
G1 X90.210 Y85.630 E38.24165
G1 X90.639 Y85.545 E38.26195
G1 X109.409 Y85.549 E39.13277
G1 X109.756 Y85.620 E39.14920
G1 X110.144 Y85.780 E39.16867
G1 X110.402 Y85.944 E39.18286
G1 X110.988 Y86.516 E39.22085
G1 X111.234 Y86.883 E39.24130
G1 X111.382 Y87.249 E39.25965
G1 X111.455 Y87.637 E39.27797
G1 X111.455 Y112.361 E40.42498
G1 X111.370 Y112.790 E40.44528
G1 X111.235 Y113.115 E40.46158
G1 X111.084 Y113.366 E40.47516
G1 X110.366 Y114.084 E40.52227
G1 X110.115 Y114.235 E40.53586
G1 X109.790 Y114.370 E40.55216
G1 X109.361 Y114.455 E40.57245
G1 X90.639 Y114.455 E41.44105
G1 X90.210 Y114.370 E41.46134
G1 X89.885 Y114.235 E41.47764
G1 X89.634 Y114.084 E41.49123
G1 X88.916 Y113.366 E41.53834
G1 X88.765 Y113.115 E41.55193
G1 X88.630 Y112.790 E41.56822
G1 X88.545 Y112.361 E41.58852
G1 X88.545 Y87.639 E42.73548
G1 X88.582 Y87.454 E42.74421
G1 X89.015 Y87.540 F7200.000
G1 F1200.000
G1 X89.051 Y87.360 E42.75273
G1 X89.170 Y87.073 E42.76714
G1 X89.282 Y86.891 E42.77705
G1 X89.891 Y86.282 E42.81701
G1 X90.073 Y86.170 E42.82692
G1 X90.360 Y86.051 E42.84134
G1 X90.661 Y85.991 E42.85555
G1 X109.384 Y85.996 E43.72418
G1 X109.641 Y86.051 E43.73636
G1 X109.927 Y86.170 E43.75074
G1 X110.109 Y86.282 E43.76068
G1 X110.660 Y86.820 E43.79636
G1 X110.831 Y87.075 E43.81059
G1 X110.949 Y87.360 E43.82494
G1 X111.009 Y87.660 E43.83914
G1 X111.009 Y112.340 E44.98407
G1 X110.949 Y112.640 E44.99828
G1 X110.830 Y112.927 E45.01269
G1 X110.718 Y113.109 E45.02260
G1 X110.109 Y113.718 E45.06256
G1 X109.927 Y113.830 E45.07247
G1 X109.640 Y113.949 E45.08689
G1 X109.340 Y114.009 E45.10110
G1 X90.660 Y114.009 E45.96766
G1 X90.360 Y113.949 E45.98187
G1 X90.073 Y113.830 E45.99629
G1 X89.891 Y113.718 E46.00620
G1 X89.282 Y113.109 E46.04616
G1 X89.170 Y112.927 E46.05607
G1 X89.051 Y112.640 E46.07048
G1 X88.991 Y112.340 E46.08469
G1 X89.004 Y87.599 E47.23247
G1 X89.438 Y87.682 F7200.000
G1 F1200.000
G1 X89.472 Y87.511 E47.24059
G1 X89.575 Y87.263 E47.25303
G1 X89.645 Y87.152 E47.25914
G1 X90.152 Y86.645 E47.29239
G1 X90.263 Y86.575 E47.29850
G1 X90.511 Y86.472 E47.31094
G1 X90.682 Y86.438 E47.31906
G1 X109.358 Y86.442 E48.18549
G1 X109.487 Y86.471 E48.19159
G1 X109.737 Y86.575 E48.20416
G1 X109.849 Y86.645 E48.21029
G1 X110.330 Y87.120 E48.24165
G1 X110.427 Y87.265 E48.24975
G1 X110.528 Y87.511 E48.26206
G1 X110.562 Y87.682 E48.27018
G1 X110.562 Y112.318 E49.41307
G1 X110.528 Y112.489 E49.42120
G1 X110.425 Y112.737 E49.43364
G1 X110.355 Y112.848 E49.43974
G1 X109.848 Y113.355 E49.47300
G1 X109.737 Y113.425 E49.47910
G1 X109.489 Y113.528 E49.49154
G1 X109.318 Y113.562 E49.49966
G1 X90.682 Y113.562 E50.36419
G1 X90.511 Y113.528 E50.37232
G1 X90.263 Y113.425 E50.38476
G1 X90.152 Y113.355 E50.39086
G1 X89.645 Y112.848 E50.42412
G1 X89.575 Y112.737 E50.43022
G1 X89.472 Y112.489 E50.44266
G1 X89.438 Y112.318 E50.45078
G1 X89.438 Y87.742 E51.59089
G1 X89.884 Y87.742 F7200.000
G1 F1200.000
G1 X89.893 Y87.661 E51.59468
G1 X90.002 Y87.420 E51.60696
G1 X90.420 Y87.002 E51.63439
G1 X90.704 Y86.884 E51.64867
G1 X109.296 Y86.884 E52.51117
G1 X109.580 Y87.002 E52.52545
G1 X109.998 Y87.420 E52.55288
G1 X110.116 Y87.704 E52.56716
G1 X110.116 Y112.296 E53.70801
G1 X109.998 Y112.580 E53.72229
G1 X109.580 Y112.998 E53.74972
G1 X109.296 Y113.116 E53.76400
G1 X90.704 Y113.116 E54.62650
G1 X90.420 Y112.998 E54.64078
G1 X90.002 Y112.580 E54.66821
G1 X89.884 Y112.296 E54.68249
G1 X89.884 Y87.802 E55.81879
G1 X90.330 Y87.802 F7200.000
G1 F1200.000
G1 X90.364 Y87.689 E55.82430
G1 X90.689 Y87.364 E55.84557
G1 X90.771 Y87.330 E55.84969
G1 X109.229 Y87.330 E56.70603
G1 X109.311 Y87.364 E56.71015
G1 X109.636 Y87.689 E56.73143
G1 X109.670 Y87.771 E56.73555
G1 X109.670 Y112.229 E57.87024
G1 X109.636 Y112.311 E57.87436
G1 X109.311 Y112.636 E57.89563
G1 X109.229 Y112.670 E57.89975
G1 X90.771 Y112.670 E58.75609
G1 X90.689 Y112.636 E58.76021
G1 X90.364 Y112.311 E58.78149
G1 X90.330 Y112.229 E58.78561
G1 X90.330 Y87.862 E59.91605
G1 X90.777 Y87.908 F7200.000
G1 F1200.000
G1 X90.908 Y87.777 E59.92463
G1 X109.092 Y87.777 E60.76827
G1 X109.223 Y87.908 E60.77685
G1 X109.223 Y112.092 E61.89885
G1 X109.092 Y112.223 E61.90743
G1 X90.908 Y112.223 E62.75107
G1 X90.777 Y112.092 E62.75965
G1 X90.777 Y87.968 E63.87886
G1 X91.450 Y88.450 F7200.000
G1 F1200.000
G1 X108.550 Y88.450 E64.67218
G1 X108.550 Y111.550 E65.74385
G1 X91.450 Y111.550 E66.53716
G1 X91.450 Y88.510 E67.60605
G1 X91.831 Y88.572 F7200.000
G1 E65.60605 F2400.00000
G92 E0
G1 X100.218 Y88.896 F7200.000
G1 E2.00000 F2400.00000
G1 F1200.000
G1 X108.104 Y88.896 E2.36583
G1 X108.104 Y111.104 E3.39608
G1 X91.896 Y111.104 E4.14798
G1 X91.896 Y88.896 E5.17824
G1 X100.158 Y88.896 E5.56153
G1 E3.56153 F2400.00000
G92 E0
G1 X98.700 Y95.800 F7200.000
G1 E2.00000 F2400.00000
G1 F1200.000
G1 X98.700 Y104.200 E2.38970
G1 X95.300 Y104.200 E2.54743
G1 X95.300 Y95.800 E2.93713
G1 X98.640 Y95.800 E3.09208
G1 X99.069 Y95.646 F7200.000
G1 X98.640 Y95.354
G1 F1200.000
G1 X99.146 Y95.354 E3.11557
G1 X99.146 Y104.646 E3.54669
G1 X94.854 Y104.646 E3.74584
G1 X94.854 Y95.354 E4.17695
G1 X98.580 Y95.354 E4.34982
G1 E2.34982 F2400.00000
G92 E0
G1 X101.748 Y98.916 F7200.000
G1 E2.00000 F2400.00000
G1 F1200.000
G1 X103.444 Y97.563 E2.10062
G1 X105.558 Y98.046 E2.20125
G1 X106.499 Y100.000 E2.30187
G1 X105.558 Y101.954 E2.40249
G1 X103.444 Y102.437 E2.50312
G1 X101.748 Y101.084 E2.60374
G1 X101.748 Y98.976 E2.70158
G1 X101.523 Y98.585 F7200.000
G1 X101.302 Y98.976
G1 F1200.000
G1 X101.302 Y98.701 E2.71434
G1 X103.334 Y97.080 E2.83490
G1 X105.867 Y97.659 E2.95547
G1 X106.995 Y100.000 E3.07604
G1 X105.867 Y102.341 E3.19661
G1 X103.334 Y102.920 E3.31717
G1 X101.302 Y101.299 E3.43774
G1 X101.302 Y99.036 E3.54277
G1 E1.54277 F2400.00000
G92 E0
G1 X99.018 Y95.175 F7200.000
G1 E2.00000 F2400.00000
G1 F1200.000
G1 X93.119 Y89.276 E2.39274
G1 X92.478 Y89.276 E2.42289
G1 X98.177 Y94.974 E2.80225
G1 X97.536 Y94.974 E2.83240
G1 X92.276 Y89.714 E3.18261
G1 X92.276 Y90.354 E3.21276
G1 X96.896 Y94.974 E3.52033
G1 X96.255 Y94.974 E3.55048
G1 X92.276 Y90.995 E3.81540
G1 X92.276 Y91.635 E3.84555
G1 X95.615 Y94.974 E4.06784
G1 X94.974 Y94.974 E4.09799
G1 X92.276 Y92.276 E4.27764
G1 X92.276 Y92.916 E4.30779
G1 X94.474 Y95.115 E4.45415
G1 X94.474 Y95.755 E4.48430
G1 X92.276 Y93.557 E4.63066
G1 X92.276 Y94.197 E4.66081
G1 X94.474 Y96.396 E4.80718
G1 X94.474 Y97.036 E4.83733
