; generated by PrusaSlicer 2.2.0+linux-x64 on 2020-09-12 at 16:00:32 UTC

; Vzorovy konfiguracní soubor pro PLA, celokovovy hotend 1,75 mm, tryska 0,4 mm
; 
; Zahradnik se bavi Rebel 2
; http://www.zahradniksebavi.cz
; 
; Petr Zahradnik
; clexpert@clexpert.cz

; external perimeters extrusion width = 0.45mm
; perimeters extrusion width = 0.45mm
; infill extrusion width = 0.45mm
; solid infill extrusion width = 0.45mm
; top infill extrusion width = 0.40mm
; support material extrusion width = 0.40mm
; first layer extrusion width = 0.50mm

M107
G21
M190 S50
G28
G90
G21
G92 E0
M82
M109 S200
G92 E0
G21 ; set units to millimeters
G90 ; use absolute coordinates
M82 ; use absolute distances for extrusion
G92 E0
; Filament gcode
G1 E-1.00000 F3900.00000
G92 E0
G1 Z0.050 F7200.000
G1 X36.884 Y51.134
G1 E1.00000 F3900.00000
G1 F1200.000
G1 X38.097 Y50.359 E1.06680
G1 X39.454 Y49.877 E1.13361
G1 X40.885 Y49.714 E1.20041
G1 X137.693 Y50.239 E5.69163
G1 X139.211 Y50.445 E5.76273
G1 X140.636 Y51.008 E5.83383
G1 X153.756 Y59.033 E6.54730
G1 X154.933 Y60.072 E6.62012
G1 X155.818 Y61.368 E6.69294
G1 X178.834 Y119.250 E9.58276
G1 X179.150 Y120.541 E9.64440
G1 X179.189 Y121.875 E9.70633
G1 X178.948 Y123.188 E9.76826
G1 X178.440 Y124.416 E9.82990
G1 X177.995 Y125.120 E9.86854
G1 X177.462 Y125.760 E9.90718
G1 X176.855 Y126.321 E9.94553
G1 X176.174 Y126.801 E9.98417
G1 X154.554 Y139.019 E11.13626
G1 X131.557 Y148.306 E12.28689
G1 X130.659 Y148.579 E12.33042
G1 X129.737 Y148.716 E12.37367
G1 X128.748 Y148.720 E12.41953
G1 X127.801 Y148.582 E12.46393
G1 X126.724 Y148.238 E12.51638
G1 X122.128 Y146.196 E12.74971
G1 X37.257 Y99.246 E17.24940
G1 X36.309 Y98.597 E17.30271
G1 X35.497 Y97.792 E17.35573
G1 X32.265 Y93.662 E17.59904
G1 X31.700 Y92.563 E17.65637
G1 X31.359 Y91.376 E17.71370
G1 X29.524 Y73.161 E18.56298
G1 X29.325 Y65.319 E18.92693
G1 X29.363 Y64.493 E18.96529
G1 X29.605 Y63.332 E19.02032
G1 X30.057 Y62.241 E19.07507
G1 X35.391 Y52.885 E19.57473
G1 X35.881 Y52.158 E19.61539
G1 X36.842 Y51.177 E19.67912
G1 X37.149 Y51.493 F7200.000
G1 F1200.000
G1 X38.282 Y50.765 E19.74158
G1 X39.550 Y50.313 E19.80405
G1 X40.888 Y50.161 E19.86651
G1 X137.682 Y50.685 E24.35714
G1 X139.088 Y50.874 E24.42292
G1 X140.407 Y51.392 E24.48870
G1 X153.488 Y59.391 E25.20002
G1 X154.586 Y60.353 E25.26774
G1 X155.416 Y61.561 E25.33573
G1 X178.411 Y119.391 E28.22291
G1 X178.707 Y120.594 E28.28040
G1 X178.744 Y121.832 E28.33788
G1 X178.522 Y123.052 E28.39537
G1 X178.053 Y124.192 E28.45258
G1 X177.638 Y124.851 E28.48872
G1 X177.144 Y125.446 E28.52459
G1 X176.572 Y125.975 E28.56073
G1 X175.935 Y126.423 E28.59687
G1 X154.343 Y138.626 E29.74748
G1 X131.404 Y147.886 E30.89514
G1 X130.562 Y148.143 E30.93600
G1 X129.690 Y148.271 E30.97686
G1 X128.758 Y148.273 E31.02009
G1 X127.864 Y148.139 E31.06206
G1 X126.889 Y147.824 E31.10957
G1 X122.357 Y145.812 E31.33961
G1 X37.474 Y98.856 E35.83994
G1 X36.608 Y98.265 E35.88856
G1 X35.860 Y97.531 E35.93719
G1 X32.655 Y93.443 E36.17819
G1 X32.120 Y92.412 E36.23208
G1 X31.797 Y91.290 E36.28624
G1 X29.969 Y73.135 E37.13277
G1 X29.803 Y64.579 E37.52978
G1 X30.026 Y63.482 E37.58172
G1 X30.453 Y62.446 E37.63367
G1 X35.775 Y53.112 E38.13215
G1 X36.212 Y52.460 E38.16857
G1 X37.107 Y51.536 E38.22825
G1 X37.409 Y51.858 F7200.000
G1 F1200.000
G1 X38.461 Y51.175 E38.28643
G1 X39.641 Y50.750 E38.34461
G1 X40.887 Y50.607 E38.40279
G1 X137.673 Y51.132 E42.89299
G1 X138.967 Y51.303 E42.95357
G1 X140.183 Y51.778 E43.01414
G1 X153.223 Y59.750 E43.72317
G1 X154.245 Y60.642 E43.78613
G1 X155.016 Y61.759 E43.84909
G1 X177.985 Y119.527 E46.73318
G1 X178.261 Y120.633 E46.78604
G1 X178.301 Y121.777 E46.83917
G1 X178.100 Y122.905 E46.89230
G1 X177.668 Y123.965 E46.94543
G1 X176.820 Y125.140 E47.01264
G1 X175.692 Y126.049 E47.07984
G1 X154.137 Y138.229 E48.22844
G1 X131.245 Y147.469 E49.37372
G1 X130.457 Y147.709 E49.41193
G1 X129.642 Y147.827 E49.45015
G1 X128.769 Y147.826 E49.49063
G1 X127.933 Y147.697 E49.52991
G1 X127.057 Y147.410 E49.57266
G1 X122.579 Y145.425 E49.79991
G1 X37.696 Y98.469 E54.30023
G1 X36.905 Y97.932 E54.34458
G1 X36.220 Y97.265 E54.38892
G1 X33.043 Y93.221 E54.62750
G1 X32.537 Y92.252 E54.67823
G1 X32.235 Y91.207 E54.72870
G1 X30.415 Y73.102 E55.57287
G1 X30.243 Y64.661 E55.96456
G1 X30.448 Y63.627 E56.01343
G1 X30.849 Y62.653 E56.06230
G1 X36.538 Y52.768 E56.59144
G1 X37.368 Y51.901 E56.64710
G1 E55.64710 F3900.00000
G92 E0
G1 X42.027 Y80.229 F7200.000
G1 E1.00000 F3900.00000
G1 F1200.000
G1 X42.027 Y74.908 E1.24683
G1 X42.150 Y75.100 E1.25739
G1 X42.920 Y75.511 E1.29789
G1 X42.920 Y87.225 E1.84134
G1 X43.058 Y88.620 E1.90640
G1 X43.813 Y88.835 E1.94281
G1 X43.813 Y75.634 E2.55520
G1 X44.320 Y75.622 E2.57875
G1 X44.705 Y75.773 E2.59796
G1 X44.705 Y89.088 E3.21567
G1 X45.598 Y89.342 E3.25872
G1 X45.598 Y76.124 E3.87192
G1 X46.491 Y76.475 E3.91641
G1 X46.491 Y89.595 E4.52511
G1 X47.384 Y89.849 E4.56816
G1 X47.384 Y76.825 E5.17236
G1 X47.719 Y76.943 E5.18886
G1 X48.276 Y77.069 E5.21536
G1 X48.276 Y90.102 E5.82001
G1 X49.169 Y90.355 E5.86306
G1 X49.169 Y77.271 E6.47010
G1 X50.015 Y77.462 E6.51033
G1 X50.062 Y77.517 E6.51370
G1 X50.062 Y90.818 E7.13074
G1 X54.525 Y92.085 F7200.000
G1 F1200.000
G1 X54.525 Y82.792 E7.56187
G1 X54.422 Y82.670 E7.56925
G1 X54.188 Y81.585 E7.62077
G1 X54.525 Y80.397 E7.67807
G1 X54.525 Y80.205 E7.68697
G1 X53.632 Y80.227 E7.72839
G1 X53.632 Y91.623 E8.25708
G1 X52.740 Y91.369 E8.30013
G1 X52.740 Y84.716 E8.60881
G1 X51.847 Y84.716 E8.65022
G1 X51.847 Y91.116 E8.94714
G1 X50.954 Y90.862 E8.99019
G1 X50.954 Y84.716 E9.27536
G1 X50.539 Y84.716 E9.29462
G1 X50.539 Y82.076 E9.41706
G1 X50.954 Y82.076 E9.43631
G1 X50.954 Y78.572 E9.59888
G1 X51.847 Y79.627 E9.66299
G1 X51.847 Y82.076 E9.77661
G1 X52.740 Y82.076 E9.81803
G1 X52.740 Y79.934 E9.91743
G1 E8.91743 F3900.00000
G92 E0
G1 X60.774 Y88.433 F7200.000
G1 E1.00000 F3900.00000
G1 F1200.000
G1 X60.774 Y89.009 E1.02670
G1 X61.667 Y89.489 E1.07374
G1 X61.667 Y89.142 E1.08986
G1 X62.559 Y89.623 E1.13689
G1 X62.559 Y90.198 E1.16360
G1 X62.435 Y90.668 F7200.000
G1 F1200.000
G1 X62.435 Y90.353 E1.17492
G1 X62.088 Y90.167 E1.18908
G1 X62.088 Y90.512 E1.20151
G1 X61.742 Y90.512 E1.21398
G1 X61.742 Y89.980 E1.23312
G1 X61.396 Y89.794 E1.24729
G1 X61.396 Y90.512 E1.27314
G1 X61.049 Y90.512 E1.28561
G1 X61.049 Y89.607 E1.31818
G1 X60.703 Y89.421 E1.33234
G1 X60.703 Y90.512 E1.37163
G1 X60.357 Y90.512 E1.38410
G1 X60.357 Y89.234 E1.43010
G1 X60.046 Y89.067 E1.44280
G1 X60.010 Y88.998 E1.44558
G1 X60.010 Y90.512 E1.50007
G1 X59.664 Y90.512 E1.51253
G1 X59.664 Y88.333 E1.59098
G1 X59.429 Y87.880 E1.60934
G1 X59.454 Y87.666 E1.61713
G1 X59.318 Y87.666 E1.62203
G1 X59.318 Y90.512 E1.72450
G1 X58.975 Y90.512 E1.73685
G1 X58.971 Y86.983 E1.86388
G1 X58.665 Y86.725 E1.87829
G1 X58.625 Y86.734 E1.87977
G1 X58.625 Y87.666 E1.91330
G1 X58.279 Y87.666 E1.92577
G1 X58.279 Y86.809 E1.95661
G1 X57.932 Y86.884 E1.96937
G1 X57.932 Y87.666 E1.99751
G1 X57.586 Y87.666 E2.00998
G1 X57.586 Y86.959 E2.03543
G1 X57.433 Y86.992 E2.04105
G1 X57.240 Y86.763 E2.05185
G1 X57.240 Y87.666 E2.08435
G1 X56.893 Y87.666 E2.09682
G1 X56.893 Y86.353 E2.14406
G1 X56.547 Y85.944 E2.16336
G1 X56.547 Y87.666 E2.22533
G1 X56.201 Y87.666 E2.23780
G1 X56.201 Y85.294 E2.32319
G1 E1.32319 F3900.00000
G92 E0
G1 X58.989 Y85.953 F7200.000
G1 E1.00000 F3900.00000
G1 F1200.000
G1 X58.989 Y86.480 E1.02444
G1 X58.772 Y86.297 E1.03760
G1 X58.096 Y86.443 E1.06968
G1 X58.096 Y86.029 E1.08887
G1 X57.393 Y86.181 E1.12221
G1 X57.203 Y85.956 E1.13587
G1 X57.203 Y86.106 E1.14283
G1 X56.311 Y85.051 E1.20693
G1 X56.311 Y84.901 E1.21388
G1 X55.418 Y83.847 E1.27799
G1 X55.418 Y92.130 E1.66226
G1 X56.311 Y92.383 E1.70531
G1 X56.311 Y88.062 E1.90578
G1 X57.203 Y88.062 E1.94719
G1 X57.203 Y92.636 E2.15942
G1 X58.096 Y92.890 E2.20247
G1 X58.096 Y88.062 E2.42645
G1 X58.578 Y88.062 E2.44883
G1 X58.578 Y90.908 E2.58088
G1 X58.989 Y90.908 E2.59991
G1 X58.989 Y93.131 E2.70302
G1 X59.881 Y93.196 E2.74455
G1 X59.881 Y90.908 E2.85067
G1 X60.774 Y90.908 E2.89209
G1 X60.774 Y93.261 E3.00123
G1 X61.667 Y93.326 E3.04276
G1 X61.667 Y90.908 E3.15492
G1 X62.559 Y90.908 E3.19634
G1 X62.559 Y93.411 E3.31246
G1 X63.452 Y93.516 E3.35416
G1 X63.452 Y90.103 E3.51251
G1 X63.576 Y90.170 E3.51901
G1 X64.345 Y89.770 E3.55924
G1 X64.345 Y90.143 E3.57657
G1 X65.064 Y89.769 E3.61417
G1 X65.064 Y90.646 E3.65485
G1 X65.238 Y90.555 E3.66394
G1 X65.238 Y89.305 E3.72194
G1 X65.664 Y89.083 E3.74423
G1 X66.130 Y85.121 E3.92930
G1 X66.130 Y90.316 E4.17031
G1 X64.345 Y93.824 F7200.000
G1 F1200.000
G1 X64.345 Y90.707 E4.31489
G1 X64.513 Y90.668 F7200.000
G1 F1200.000
G1 X64.513 Y90.327 E4.32716
G1 X64.859 Y91.023 F7200.000
G1 F1200.000
G1 X64.859 Y93.358 E4.41122
G1 X65.206 Y93.358 E4.42368
G1 X65.206 Y91.019 E4.50790
G1 X65.552 Y90.839 E4.52195
G1 X65.552 Y93.358 E4.61266
G1 X65.898 Y93.358 E4.62513
G1 X65.898 Y90.512 E4.72759
G1 X66.245 Y90.512 E4.74006
G1 X66.245 Y91.730 E4.78391
G1 X65.921 Y93.085 E4.83405
G1 X66.245 Y93.259 E4.84730
G1 X66.245 Y93.514 E4.85648
G1 X66.130 Y94.034 F7200.000
G1 F1200.000
G1 X66.130 Y93.755 E4.86945
G1 X67.023 Y93.755 E4.91086
G1 X67.023 Y94.139 E4.92871
G1 X67.630 Y94.216 F7200.000
G1 F1200.000
G1 X67.630 Y93.828 E4.94266
G1 X67.630 Y93.514 F7200.000
G1 F1200.000
G1 X67.630 Y93.001 E4.96113
G1 X67.023 Y93.456 F7200.000
G1 F1200.000
G1 X67.023 Y84.716 E5.36663
G1 X67.916 Y84.716 E5.40804
G1 X67.916 Y93.029 E5.79374
G1 X68.071 Y93.328 E5.80938
G1 X68.236 Y93.417 E5.81806
G1 X68.151 Y93.755 E5.83419
G1 X68.000 Y93.755 E5.84116
G1 X68.708 Y94.135 E5.87843
G1 X68.808 Y94.147 E5.88313
G1 X68.808 Y84.716 E6.32069
G1 X69.701 Y84.716 E6.36210
G1 X69.701 Y94.455 E6.81393
G1 X71.486 Y94.665 F7200.000
G1 F1200.000
G1 X71.486 Y94.202 E6.83541
G1 E5.83541 F3900.00000
G92 E0
G1 X124.156 Y123.187 F7200.000
G1 E1.00000 F3900.00000
G1 F1200.000
G1 X124.156 Y90.908 E2.49752
G1 X123.263 Y90.908 E2.53893
G1 X123.263 Y120.595 E3.91617
G1 X122.370 Y118.514 E4.02120
G1 X122.370 Y90.908 E5.30191
G1 X121.478 Y90.908 E5.34332
G1 X121.478 Y116.530 E6.53197
G1 X120.585 Y114.466 E6.63628
G1 X120.585 Y90.908 E7.72919
G1 X119.692 Y90.908 E7.77060
G1 X119.692 Y112.402 E8.76778
G1 X118.799 Y110.339 E8.87209
G1 X118.799 Y93.755 E9.64147
G1 X117.907 Y93.755 E9.68289
G1 X117.907 Y108.275 E10.35653
G1 X117.014 Y106.212 E10.46084
G1 X117.014 Y93.755 E11.03875
G1 X116.121 Y93.755 E11.08017
G1 X116.121 Y104.148 E11.56234
G1 X115.229 Y102.086 E11.66659
G1 X115.229 Y93.755 E12.05309
G1 X114.336 Y93.755 E12.09451
G1 X114.336 Y101.105 E12.43553
G1 X113.443 Y100.704 E12.48093
G1 X113.443 Y93.269 E12.82585
G1 X112.551 Y93.808 E12.87422
G1 X112.551 Y94.165 E12.89080
G1 X111.658 Y94.704 E12.93916
G1 X111.658 Y94.347 E12.95574
G1 X110.765 Y94.885 E13.00411
G1 X110.765 Y95.422 E13.02899
G1 E12.02899 F3900.00000
G92 E0
G1 X113.002 Y96.360 F7200.000
G1 E1.00000 F3900.00000
G1 F1200.000
G1 X113.002 Y94.356 E1.07216
G1 X112.655 Y94.565 E1.08672
G1 X112.655 Y96.205 E1.14575
G1 X112.309 Y96.205 E1.15822
G1 X112.309 Y94.774 E1.20972
G1 X111.963 Y94.983 E1.22428
G1 X111.963 Y96.205 E1.26827
G1 X111.616 Y96.205 E1.28073
G1 X111.616 Y95.192 E1.31719
G1 X111.270 Y95.401 E1.33176
G1 X111.270 Y96.205 E1.36069
G1 X110.924 Y96.205 E1.37316
G1 X110.924 Y95.579 E1.39568
G1 X110.577 Y95.680 E1.40867
G1 X110.577 Y96.205 E1.42756
G1 X110.231 Y96.205 E1.44003
G1 X110.231 Y95.715 E1.45766
G1 X110.011 Y95.720 E1.46558
G1 X109.885 Y95.757 E1.47032
G1 X109.885 Y96.205 E1.48643
G1 X109.538 Y96.205 E1.49890
G1 X109.538 Y95.858 E1.51138
G1 X109.470 Y95.878 E1.51393
G1 X109.192 Y95.885 E1.52395
G1 X109.192 Y96.205 E1.53548
G1 X108.846 Y96.205 E1.54794
G1 X108.846 Y95.935 E1.55765
G1 X108.499 Y96.036 E1.57064
G1 X108.499 Y96.360 E1.58232
G1 X105.409 Y96.642 F7200.000
G1 F1200.000
G1 X105.409 Y97.099 E1.60353
G1 X105.945 Y97.339 E1.63077
G1 X106.302 Y97.207 E1.64843
G1 X106.302 Y96.521 E1.68026
G1 X106.439 Y96.455 E1.68733
G1 X106.963 Y96.133 E1.71586
G1 X107.194 Y96.128 E1.72659
G1 X107.194 Y97.070 E1.77030
G1 X106.421 Y97.419 F7200.000
G1 F1200.000
G1 X106.421 Y97.607 E1.77704
G1 X106.767 Y97.762 E1.79070
G1 X106.767 Y97.457 E1.80168
G1 X107.114 Y97.326 E1.81501
G1 X107.114 Y98.089 E1.84244
G1 X108.087 Y98.521 F7200.000
G1 F1200.000
G1 X108.087 Y96.601 E1.93150
G1 X108.980 Y96.601 E1.97291
G1 X108.980 Y98.701 E2.07034
G1 X109.872 Y99.101 E2.11573
G1 X109.872 Y96.601 E2.23173
G1 X110.765 Y96.601 E2.27315
G1 X110.765 Y99.502 E2.40774
G1 X111.658 Y99.903 E2.45313
G1 X111.658 Y96.601 E2.60632
G1 X112.551 Y96.601 E2.64773
G1 X112.551 Y100.524 E2.82972
G1 X115.229 Y92.782 F7200.000
G1 F1200.000
G1 X115.229 Y88.221 E3.04132
G1 X114.936 Y88.172 E3.05509
G1 X114.900 Y88.529 E3.07172
G1 X114.336 Y88.392 E3.09864
G1 X114.336 Y89.397 E3.14528
G1 X114.779 Y90.168 E3.18653
G1 X114.885 Y91.070 E3.22866
G1 X114.599 Y92.047 E3.27588
G1 X114.729 Y92.493 E3.29745
G1 X114.413 Y92.685 E3.31462
G1 X114.336 Y92.946 E3.32726
G1 X114.336 Y93.323 E3.34473
G1 X114.734 Y93.514 F7200.000
G1 F1200.000
G1 X114.734 Y93.311 E3.35204
G1 X115.080 Y93.102 E3.36660
G1 X115.080 Y93.358 E3.37582
G1 X115.426 Y93.358 E3.38829
G1 X115.426 Y92.885 E3.40532
G1 X115.484 Y92.847 E3.40780
G1 X115.668 Y93.151 E3.42059
G1 X115.773 Y93.087 E3.42501
G1 X115.773 Y93.358 E3.43476
G1 X116.119 Y93.358 E3.44723
G1 X116.119 Y92.914 E3.46320
G1 X116.465 Y92.696 E3.47795
G1 X116.465 Y93.358 E3.50180
G1 X116.812 Y93.358 E3.51427
G1 X116.812 Y92.465 E3.54641
G1 X117.010 Y92.334 E3.55498
G1 X117.158 Y91.992 E3.56840
G1 X117.158 Y93.514 E3.62321
G1 E2.62321 F3900.00000
G92 E0
G1 X124.431 Y90.668 F7200.000
G1 E1.00000 F3900.00000
G1 F1200.000
G1 X124.431 Y88.283 E1.08585
G1 X124.396 Y88.360 E1.08889
G1 X124.085 Y88.548 E1.10197
G1 X124.085 Y90.512 E1.17268
G1 X123.739 Y90.512 E1.18515
G1 X123.739 Y88.757 E1.24834
G1 X123.392 Y88.966 E1.26290
G1 X123.392 Y90.512 E1.31857
G1 X123.046 Y90.512 E1.33103
G1 X123.046 Y89.174 E1.37918
G1 X122.700 Y89.383 E1.39374
G1 X122.700 Y90.512 E1.43436
G1 X122.353 Y90.512 E1.44683
G1 X122.353 Y89.592 E1.47993
G1 X122.007 Y89.801 E1.49449
G1 X122.007 Y90.512 E1.52007
G1 X121.660 Y90.512 E1.53254
G1 X121.660 Y90.010 E1.55060
G1 X121.594 Y90.050 E1.55338
G1 X121.594 Y89.611 E1.56919
G1 X121.314 Y89.780 E1.58097
G1 X121.314 Y90.512 E1.60732
G1 X120.968 Y90.512 E1.61979
G1 X120.968 Y89.989 E1.63861
G1 X120.932 Y90.011 E1.64012
G1 X120.621 Y89.868 E1.65242
G1 X120.621 Y90.512 E1.67560
G1 X120.275 Y90.512 E1.68807
G1 X120.275 Y89.709 E1.71698
G1 X119.929 Y89.550 E1.73071
G1 X119.929 Y90.512 E1.76535
G1 X119.582 Y90.512 E1.77782
G1 X119.582 Y89.390 E1.81820
G1 X119.236 Y89.231 E1.83192
G1 X119.236 Y90.512 E1.87803
G1 X118.890 Y90.512 E1.89050
G1 X118.890 Y89.072 E1.94234
G1 X118.841 Y89.050 E1.94426
G1 X118.748 Y88.493 E1.96456
G1 X118.748 Y90.512 E2.03723
G1 X118.543 Y90.512 E2.04460
G1 X118.543 Y93.358 E2.14707
G1 X118.197 Y93.358 E2.15954
G1 X118.197 Y90.512 E2.26200
G1 X117.851 Y90.512 E2.27447
G1 X117.851 Y93.358 E2.37694
G1 X117.504 Y93.358 E2.38941
G1 X117.504 Y90.356 E2.49748
G1 X117.907 Y90.316 F7200.000
G1 F1200.000
G1 X117.907 Y83.266 E2.82455
G1 X117.014 Y83.266 E2.86596
G1 X117.014 Y91.327 E3.23991
G1 X116.693 Y92.069 E3.27741
G1 X116.298 Y92.331 E3.29939
G1 X116.298 Y92.306 E3.30054
G1 X116.121 Y92.413 E3.31012
G1 X116.121 Y83.266 E3.73446
G1 X115.798 Y83.266 E3.74945
G1 X115.798 Y84.716 E3.81669
G1 X115.229 Y84.716 E3.84310
G1 X115.229 Y87.269 E3.96157
G1 X114.336 Y87.269 E4.00299
G1 X114.336 Y84.716 E4.12145
G1 X113.443 Y84.716 E4.16287
G1 X113.443 Y87.269 E4.28133
G1 X112.659 Y87.269 E4.31772
G1 X112.659 Y88.246 E4.36302
G1 X113.069 Y88.250 E4.38203
G1 X112.551 Y88.435 E4.40756
G1 X112.551 Y84.716 E4.58013
G1 X111.658 Y84.716 E4.62155
G1 X111.658 Y88.755 E4.80894
G1 X110.765 Y89.074 E4.85292
G1 X110.765 Y84.515 E5.06444
G1 E4.06444 F3900.00000
G92 E0
G1 X113.348 Y88.016 F7200.000
G1 E1.00000 F3900.00000
G1 F1200.000
G1 X113.348 Y87.666 E1.01263
G1 X113.694 Y87.666 E1.02510
G1 X113.694 Y87.894 E1.03334
G1 X114.041 Y87.929 E1.04587
G1 X114.041 Y87.666 E1.05537
G1 X114.387 Y87.666 E1.06784
G1 X114.387 Y87.996 E1.07975
