; generated by PrusaSlicer 2.2.0+linux-x64 on 2020-10-29 at 20:29:37 UTC

; Vzorovy konfiguracní soubor pro ABS, celokovovy hotend 1,75 mm, tryska 0,4 mm
; 
; Zahradnik se bavi Rebel 2
; http://www.zahradniksebavi.cz
; 
; Petr Zahradnik
; clexpert@clexpert.cz

; external perimeters extrusion width = 0.45mm
; perimeters extrusion width = 0.45mm
; infill extrusion width = 0.45mm
; solid infill extrusion width = 0.45mm
; top infill extrusion width = 0.40mm
; first layer extrusion width = 0.50mm

M107
G21
M190 S120
G28
G90
G21
G92 E0
M82
M109 S230
G92 E0
G21 ; set units to millimeters
G90 ; use absolute coordinates
M82 ; use absolute distances for extrusion
G92 E0
; Filament gcode
G1 E-1.00000 F3900.00000
G92 E0
G1 Z0.100 F7200.000
G1 X37.066 Y55.585
G1 E1.00000 F3900.00000
G1 F1200.000
G1 X38.051 Y55.097 E1.05101
G1 X162.681 Y19.171 E7.06833
G1 X163.594 Y18.981 E7.11158
G1 X164.530 Y18.926 E7.15508
G1 X165.619 Y19.022 E7.20581
G1 X166.676 Y19.303 E7.25653
G1 X171.602 Y21.482 E7.50644
G1 X172.417 Y22.017 E7.55170
G1 X173.145 Y22.676 E7.59725
G1 X173.763 Y23.439 E7.64279
G1 X174.253 Y24.283 E7.68805
G1 X195.165 Y80.042 E10.45080
G1 X195.508 Y81.555 E10.52276
G1 X195.479 Y83.164 E10.59742
G1 X195.310 Y83.979 E10.63606
G1 X195.036 Y84.766 E10.67470
G1 X192.824 Y89.427 E10.91407
G1 X143.823 Y173.109 E15.41290
G1 X143.355 Y173.798 E15.45154
G1 X142.800 Y174.419 E15.49018
G1 X142.184 Y174.951 E15.52795
G1 X138.060 Y178.006 E15.76605
G1 X136.742 Y178.602 E15.83314
G1 X135.323 Y178.883 E15.90023
G1 X117.601 Y180.211 E16.72472
G1 X99.165 Y180.946 E17.58067
G1 X79.680 Y181.074 E18.48468
G1 X61.438 Y181.074 E19.33099
G1 X13.009 Y178.804 E21.58018
G1 X11.585 Y178.460 E21.64813
G1 X10.284 Y177.802 E21.71579
G1 X9.649 Y177.323 E21.75270
G1 X6.277 Y174.364 E21.96083
G1 X5.511 Y173.418 E22.01730
G1 X4.941 Y172.342 E22.07377
G1 X4.586 Y171.178 E22.13025
G1 X4.461 Y169.967 E22.18672
G1 X5.644 Y86.419 E26.06313
G1 X5.744 Y85.548 E26.10379
G1 X5.964 Y84.700 E26.14445
G1 X6.298 Y83.890 E26.18510
G1 X6.741 Y83.134 E26.22576
G1 X7.433 Y82.287 E26.27648
G1 X10.583 Y79.184 E26.48161
G1 X36.185 Y56.232 E28.07677
G1 X37.018 Y55.621 E28.12471
G1 X37.281 Y55.979 F7200.000
G1 F1200.000
G1 X38.215 Y55.512 E28.17313
G1 X162.804 Y19.600 E34.18849
G1 X163.655 Y19.423 E34.22879
G1 X164.529 Y19.373 E34.26944
G1 X165.550 Y19.463 E34.31696
G1 X166.539 Y19.728 E34.36448
G1 X171.377 Y21.868 E34.60991
G1 X172.144 Y22.370 E34.65243
G1 X172.824 Y22.985 E34.69496
G1 X173.400 Y23.698 E34.73748
G1 X173.858 Y24.492 E34.78001
G1 X194.744 Y80.190 E37.53968
G1 X195.064 Y81.608 E37.60712
G1 X195.034 Y83.120 E37.67729
G1 X194.875 Y83.877 E37.71316
G1 X194.619 Y84.606 E37.74902
G1 X192.434 Y89.210 E37.98543
G1 X143.438 Y172.883 E42.48380
G1 X143.004 Y173.523 E42.51967
G1 X142.485 Y174.104 E42.55581
G1 X137.847 Y177.613 E42.82563
G1 X136.616 Y178.173 E42.88837
G1 X135.284 Y178.438 E42.95139
G1 X117.572 Y179.766 E43.77540
G1 X99.150 Y180.500 E44.63071
G1 X79.678 Y180.627 E45.53410
G1 X61.438 Y180.627 E46.38031
G1 X13.077 Y178.363 E48.62635
G1 X11.739 Y178.041 E48.69020
G1 X10.512 Y177.418 E48.75404
G1 X6.587 Y174.043 E48.99415
G1 X5.877 Y173.162 E49.04666
G1 X5.351 Y172.167 E49.09888
G1 X5.022 Y171.084 E49.15139
G1 X4.907 Y169.958 E49.20389
G1 X6.090 Y86.438 E53.07899
G1 X6.186 Y85.617 E53.11735
G1 X6.395 Y84.817 E53.15571
G1 X6.712 Y84.060 E53.19380
G1 X7.135 Y83.349 E53.23216
G1 X7.764 Y82.587 E53.27802
G1 X10.900 Y79.498 E53.48222
G1 X36.477 Y56.570 E55.07575
G1 X37.233 Y56.015 E55.11929
G1 X37.496 Y56.373 F7200.000
G1 F1200.000
G1 X38.380 Y55.926 E55.16524
G1 X162.927 Y20.029 E61.17851
G1 X163.717 Y19.865 E61.21592
G1 X164.529 Y19.819 E61.25367
G1 X165.481 Y19.904 E61.29802
G1 X166.404 Y20.154 E61.34236
G1 X171.149 Y22.252 E61.58305
G1 X171.868 Y22.721 E61.62286
G1 X172.500 Y23.293 E61.66241
G1 X173.035 Y23.956 E61.70195
G1 X173.460 Y24.695 E61.74150
G1 X194.321 Y80.333 E64.49817
G1 X194.621 Y81.657 E64.56114
G1 X194.591 Y83.071 E64.62675
G1 X194.203 Y84.443 E64.69290
G1 X192.047 Y88.987 E64.92625
G1 X143.054 Y172.657 E69.42443
G1 X142.164 Y173.793 E69.49137
G1 X137.632 Y177.222 E69.75499
G1 X136.481 Y177.748 E69.81370
G1 X135.240 Y177.994 E69.87241
G1 X117.548 Y179.320 E70.69547
G1 X99.135 Y180.054 E71.55040
G1 X79.675 Y180.181 E72.45318
G1 X61.438 Y180.181 E73.29929
G1 X13.137 Y177.920 E75.54254
G1 X11.884 Y177.619 E75.60231
G1 X10.737 Y177.032 E75.66209
G1 X6.902 Y173.727 E75.89695
G1 X6.246 Y172.910 E75.94556
G1 X5.760 Y171.988 E75.99390
G1 X5.458 Y170.985 E76.04251
G1 X5.353 Y169.948 E76.09085
G1 X6.536 Y86.457 E79.96460
G1 X6.626 Y85.691 E80.00041
G1 X6.823 Y84.945 E80.03623
G1 X7.124 Y84.234 E80.07204
G1 X7.523 Y83.573 E80.10785
G1 X8.091 Y82.891 E80.14900
G1 X11.221 Y79.809 E80.35283
G1 X36.768 Y56.908 E81.94450
G1 X37.448 Y56.409 E81.98363
G1 X37.835 Y57.095 F7200.000
G1 F1200.000
G1 X38.654 Y56.632 E82.02726
G1 X40.007 Y56.311 E82.09176
G1 X59.159 Y56.349 E82.98025
G1 X79.655 Y61.676 E83.96270
G1 X108.773 Y50.467 E85.41021
G1 X141.201 Y29.003 E87.21432
G1 X162.973 Y20.804 E88.29366
G1 X163.990 Y20.598 E88.34178
G1 X165.010 Y20.602 E88.38909
G1 X166.196 Y20.881 E88.44560
G1 X170.849 Y22.945 E88.68177
G1 X171.528 Y23.411 E88.71997
G1 X172.134 Y24.008 E88.75944
G1 X172.820 Y25.096 E88.81910
G1 X193.668 Y80.754 E91.57644
G1 X193.876 Y81.845 E91.62797
G1 X193.839 Y82.979 E91.68058
G1 X193.537 Y84.081 E91.73357
G1 X191.444 Y88.530 E91.96169
G1 X190.728 Y89.505 E92.01782
G1 X190.239 Y89.947 E92.04840
G1 X189.715 Y90.313 E92.07805
G1 X169.412 Y97.972 E93.08476
G1 X155.227 Y104.095 E93.80153
G1 X152.547 Y109.912 E94.09866
G1 X151.608 Y127.434 E94.91273
G1 X151.319 Y131.578 E95.10544
G1 X148.779 Y149.440 E95.94246
G1 X148.379 Y153.270 E96.12108
G1 X142.723 Y171.649 E97.01320
G1 X141.483 Y173.411 E97.11315
G1 X137.344 Y176.521 E97.35334
G1 X135.508 Y177.212 E97.44433
G1 X117.506 Y178.562 E98.28187
G1 X101.440 Y178.569 E99.02723
G1 X100.942 Y178.862 E99.05402
G1 X99.355 Y179.296 E99.13035
G1 X81.387 Y179.296 E99.96394
G1 X79.745 Y179.421 E100.04031
G1 X61.062 Y179.421 E100.90710
G1 X59.577 Y179.052 E100.97806
G1 X58.739 Y178.582 E101.02264
G1 X57.998 Y177.936 E101.06826
G1 X54.424 Y172.948 E101.35292
G1 X42.221 Y173.218 E101.91917
G1 X39.037 Y176.241 E102.12288
G1 X37.918 Y176.871 E102.18246
G1 X36.571 Y177.198 E102.24677
G1 X13.200 Y177.171 E103.33100
G1 X12.090 Y176.888 E103.38416
G1 X11.044 Y176.326 E103.43923
G1 X7.480 Y173.246 E103.65776
G1 X6.843 Y172.453 E103.70496
G1 X6.391 Y171.538 E103.75233
G1 X6.164 Y170.686 E103.79320
G1 X6.114 Y169.794 E103.83469
G1 X7.127 Y152.775 E104.62561
G1 X7.293 Y148.861 E104.80737
G1 X7.767 Y131.357 E105.61972
G1 X7.824 Y127.035 E105.82027
G1 X7.824 Y108.796 E106.66638
G1 X7.767 Y104.473 E106.86696
G1 X7.285 Y86.494 E107.70135
G1 X7.538 Y85.170 E107.76391
G1 X7.866 Y84.439 E107.80107
G1 X8.297 Y83.791 E107.83718
G1 X11.780 Y80.325 E108.06514
G1 X37.465 Y57.304 E109.66529
G1 X37.783 Y57.124 E109.68226
G1 X37.999 Y57.510 F7200.000
G1 F1200.000
G1 X38.845 Y57.037 E109.72721
G1 X40.032 Y56.758 E109.78380
G1 X59.129 Y56.795 E110.66978
G1 X79.681 Y62.144 E111.65498
G1 X108.979 Y50.866 E113.11141
G1 X141.381 Y29.411 E114.91430
G1 X163.114 Y21.228 E115.99166
G1 X164.014 Y21.044 E116.03425
G1 X164.935 Y21.043 E116.07698
G1 X166.035 Y21.298 E116.12935
G1 X170.614 Y23.324 E116.36167
G1 X171.258 Y23.767 E116.39795
G1 X171.801 Y24.306 E116.43343
G1 X172.410 Y25.273 E116.48646
G1 X193.243 Y80.892 E119.24183
G1 X193.432 Y81.902 E119.28951
G1 X193.394 Y82.936 E119.33747
G1 X193.125 Y83.907 E119.38425
G1 X191.050 Y88.320 E119.61049
G1 X190.411 Y89.190 E119.66054
G1 X189.971 Y89.589 E119.68810
G1 X189.482 Y89.931 E119.71579
G1 X169.245 Y97.558 E120.71912
G1 X154.893 Y103.753 E121.44431
G1 X152.105 Y109.803 E121.75334
G1 X151.163 Y127.408 E122.57129
G1 X150.874 Y131.539 E122.76337
G1 X148.336 Y149.386 E123.59967
G1 X147.937 Y153.202 E123.77766
G1 X142.307 Y171.484 E124.66514
G1 X141.187 Y173.075 E124.75540
G1 X137.102 Y176.146 E124.99249
G1 X135.443 Y176.769 E125.07468
G1 X117.481 Y178.117 E125.91035
G1 X101.312 Y178.123 E126.66046
G1 X100.790 Y178.441 E126.68882
G1 X99.324 Y178.850 E126.75944
G1 X81.370 Y178.850 E127.59239
G1 X79.737 Y178.975 E127.66836
G1 X61.089 Y178.975 E128.53350
G1 X59.770 Y178.648 E128.59655
G1 X58.979 Y178.204 E128.63863
G1 X58.312 Y177.618 E128.67980
G1 X54.650 Y172.497 E128.97189
G1 X42.038 Y172.775 E129.55712
G1 X38.792 Y175.868 E129.76512
G1 X37.779 Y176.446 E129.81920
G1 X36.543 Y176.752 E129.87828
G1 X13.284 Y176.732 E130.95736
G1 X12.228 Y176.462 E131.00791
G1 X11.279 Y175.946 E131.05803
G1 X7.788 Y172.923 E131.27227
G1 X7.208 Y172.195 E131.31546
G1 X6.802 Y171.363 E131.35841
G1 X6.601 Y170.597 E131.39515
G1 X6.560 Y169.784 E131.43292
G1 X7.573 Y152.798 E132.22232
G1 X7.739 Y148.876 E132.40442
G1 X8.213 Y131.366 E133.21707
G1 X8.270 Y127.037 E133.41790
G1 X8.270 Y108.794 E134.26428
G1 X8.213 Y104.464 E134.46514
G1 X7.732 Y86.506 E135.29857
G1 X7.956 Y85.327 E135.35426
G1 X8.248 Y84.670 E135.38761
G1 X8.656 Y84.057 E135.42177
G1 X12.090 Y80.646 E135.64633
G1 X37.744 Y57.653 E137.24453
G1 X37.947 Y57.540 E137.25532
G1 X38.163 Y57.923 F7200.000
G1 F1200.000
G1 X38.980 Y57.464 E137.29882
G1 X40.058 Y57.204 E137.35028
G1 X59.100 Y57.241 E138.23369
G1 X79.707 Y62.612 E139.22163
G1 X109.185 Y51.265 E140.68699
G1 X141.562 Y29.820 E142.48866
G1 X163.254 Y21.652 E143.56400
G1 X164.079 Y21.486 E143.60302
G1 X164.908 Y21.489 E143.64146
G1 X165.873 Y21.714 E143.68746
G1 X170.380 Y23.705 E143.91604
G1 X170.959 Y24.098 E143.94850
G1 X171.468 Y24.605 E143.98181
G1 X172.000 Y25.451 E144.02819
G1 X192.818 Y81.030 E146.78159
G1 X192.989 Y81.958 E146.82534
G1 X192.949 Y82.890 E146.86864
G1 X192.714 Y83.734 E146.90929
G1 X190.655 Y88.111 E147.13368
G1 X190.094 Y88.874 E147.17762
G1 X189.682 Y89.249 E147.20345
G1 X189.251 Y89.549 E147.22784
G1 X169.077 Y97.144 E148.22786
G1 X154.559 Y103.411 E148.96147
G1 X151.664 Y109.694 E149.28240
G1 X150.717 Y127.383 E150.10422
G1 X150.430 Y131.500 E150.29569
G1 X147.893 Y149.331 E151.13126
G1 X147.496 Y153.134 E151.30863
G1 X141.890 Y171.319 E152.19145
G1 X140.891 Y172.739 E152.27203
G1 X136.859 Y175.770 E152.50602
G1 X135.378 Y176.326 E152.57941
G1 X117.456 Y177.671 E153.41322
G1 X101.181 Y177.676 E154.16825
G1 X100.635 Y178.021 E154.19821
G1 X99.292 Y178.403 E154.26297
G1 X81.353 Y178.403 E155.09525
G1 X79.728 Y178.528 E155.17083
G1 X61.116 Y178.528 E156.03431
G1 X59.959 Y178.243 E156.08957
G1 X59.255 Y177.852 E156.12694
G1 X58.626 Y177.300 E156.16577
G1 X54.876 Y172.045 E156.46526
G1 X41.855 Y172.333 E157.06949
G1 X38.544 Y175.496 E157.28191
G1 X37.639 Y176.021 E157.33048
G1 X36.515 Y176.305 E157.38423
G1 X13.364 Y176.292 E158.45827
G1 X12.415 Y176.056 E158.50363
G1 X11.513 Y175.566 E158.55127
G1 X8.096 Y172.599 E158.76122
G1 X7.598 Y171.977 E158.79819
G1 X7.213 Y171.188 E158.83890
G1 X7.040 Y170.509 E158.87139
G1 X7.006 Y169.776 E158.90547
G1 X8.018 Y152.821 E159.69345
G1 X8.185 Y148.892 E159.87589
G1 X8.659 Y131.375 E160.68884
G1 X8.717 Y127.040 E160.88995
G1 X8.717 Y108.791 E161.73661
G1 X8.659 Y104.455 E161.93775
G1 X8.179 Y86.518 E162.77020
G1 X8.375 Y85.485 E162.81901
G1 X8.648 Y84.869 E162.85024
G1 X9.014 Y84.324 E162.88069
G1 X12.401 Y80.967 E163.10193
G1 X38.024 Y58.002 E164.69824
G1 X38.110 Y57.953 E164.70285
G1 X38.328 Y58.336 F7200.000
G1 F1200.000
G1 X39.117 Y57.889 E164.74495
G1 X40.085 Y57.651 E164.79121
G1 X59.071 Y57.688 E165.67201
G1 X79.733 Y63.080 E166.66270
G1 X109.391 Y51.664 E168.13698
G1 X141.743 Y30.229 E169.93743
G1 X163.395 Y22.076 E171.01078
G1 X164.103 Y21.933 E171.04431
G1 X164.834 Y21.930 E171.07820
G1 X165.713 Y22.132 E171.12004
G1 X170.146 Y24.086 E171.34481
G1 X170.690 Y24.455 E171.37530
G1 X171.133 Y24.901 E171.40449
G1 X171.590 Y25.629 E171.44433
G1 X192.392 Y81.168 E174.19573
G1 X192.545 Y82.011 E174.23550
G1 X192.505 Y82.842 E174.27411
G1 X192.302 Y83.560 E174.30872
G1 X190.260 Y87.901 E174.53127
G1 X189.777 Y88.560 E174.56919
G1 X189.415 Y88.891 E174.59192
G1 X189.019 Y89.166 E174.61431
G1 X168.910 Y96.730 E175.61100
G1 X154.225 Y103.069 E176.35304
G1 X151.223 Y109.584 E176.68586
G1 X150.272 Y127.357 E177.51157
G1 X149.985 Y131.461 E177.70241
G1 X147.450 Y149.276 E178.53725
G1 X147.054 Y153.066 E178.71400
G1 X141.474 Y171.154 E179.59216
G1 X140.595 Y172.403 E179.66307
G1 X136.616 Y175.394 E179.89396
G1 X135.313 Y175.884 E179.95855
G1 X117.431 Y177.225 E180.79049
G1 X101.046 Y177.230 E181.55062
G1 X100.476 Y177.603 E181.58222
G1 X99.260 Y177.957 E181.64098
G1 X81.335 Y177.957 E182.47255
G1 X79.720 Y178.082 E182.54774
G1 X61.143 Y178.082 E183.40957
G1 X60.150 Y177.838 E183.45701
G1 X59.493 Y177.474 E183.49182
G1 X58.942 Y176.984 E183.52604
G1 X55.102 Y171.594 E183.83306
G1 X41.671 Y171.890 E184.45632
G1 X38.294 Y175.125 E184.67328
G1 X37.495 Y175.598 E184.71635
G1 X36.486 Y175.859 E184.76468
G1 X13.446 Y175.852 E185.83360
G1 X12.552 Y175.630 E185.87630
G1 X11.751 Y175.187 E185.91880
G1 X8.405 Y172.276 E186.12455
G1 X7.964 Y171.720 E186.15748
G1 X7.626 Y171.016 E186.19369
G1 X7.479 Y170.425 E186.22195
G1 X7.453 Y169.770 E186.25238
G1 X8.464 Y152.844 E187.03904
G1 X8.631 Y148.907 E187.22181
G1 X9.105 Y131.384 E188.03506
G1 X9.163 Y127.043 E188.23645
G1 X9.163 Y108.788 E189.08339
G1 X9.105 Y104.447 E189.28480
G1 X8.625 Y86.530 E190.11629
G1 X8.794 Y85.640 E190.15831
G1 X9.030 Y85.101 E190.18561
G1 X9.372 Y84.592 E190.21407
G1 X12.711 Y81.288 E190.43197
G1 X38.280 Y58.372 E192.02489
G1 X38.577 Y58.704 F7200.000
G1 F1200.000
G1 X39.257 Y58.314 E192.06125
G1 X40.113 Y58.097 E192.10222
G1 X59.042 Y58.134 E192.98037
G1 X79.760 Y63.548 E193.97380
G1 X109.596 Y52.063 E195.45702
G1 X141.969 Y30.615 E197.25856
G1 X163.535 Y22.500 E198.32756
G1 X164.168 Y22.375 E198.35749
G1 X164.807 Y22.376 E198.38716
G1 X165.552 Y22.548 E198.42264
G1 X169.915 Y24.468 E198.64375
G1 X170.389 Y24.786 E198.67026
G1 X170.799 Y25.198 E198.69723
G1 X171.180 Y25.806 E198.73051
G1 X191.967 Y81.304 E201.47990
G1 X192.101 Y82.062 E201.51559
G1 X192.061 Y82.792 E201.54949
G1 X191.891 Y83.386 E201.57818
G1 X189.865 Y87.692 E201.79891
G1 X189.458 Y88.247 E201.83086
G1 X189.147 Y88.533 E201.85046
G1 X188.787 Y88.784 E201.87083
G1 X168.743 Y96.316 E202.86419
G1 X153.891 Y102.727 E203.61466
G1 X150.782 Y109.475 E203.95937
G1 X149.826 Y127.331 E204.78896
G1 X149.540 Y131.422 E204.97918
G1 X147.006 Y149.222 E205.81330
G1 X146.612 Y152.998 E205.98941
G1 X141.058 Y170.988 E206.86292
G1 X140.298 Y172.068 E206.92415
G1 X136.373 Y175.018 E207.15195
G1 X135.248 Y175.441 E207.20773
G1 X117.406 Y176.779 E208.03781
G1 X100.907 Y176.784 E208.80322
G1 X100.313 Y177.186 E208.83650
G1 X99.227 Y177.511 E208.88911
G1 X81.318 Y177.511 E209.71995
G1 X79.711 Y177.636 E209.79473
G1 X61.169 Y177.636 E210.65492
G1 X60.337 Y177.432 E210.69468
G1 X59.770 Y177.123 E210.72460
G1 X59.258 Y176.667 E210.75643
G1 X55.329 Y171.142 E211.07094
G1 X41.487 Y171.448 E211.71325
G1 X38.041 Y174.757 E211.93488
G1 X37.348 Y175.175 E211.97247
G1 X36.456 Y175.413 E212.01526
G1 X13.527 Y175.413 E213.07902
G1 X12.689 Y175.204 E213.11907
G1 X12.026 Y174.835 E213.15427
G1 X8.714 Y171.954 E213.35793
G1 X8.331 Y171.465 E213.38673
G1 X8.040 Y170.848 E213.41841
G1 X7.918 Y170.344 E213.44245
G1 X7.899 Y169.766 E213.46928
G1 X8.910 Y152.866 E214.25471
G1 X9.077 Y148.923 E214.43782
G1 X9.552 Y131.393 E215.25137
G1 X9.609 Y127.046 E215.45304
G1 X9.609 Y108.785 E216.30025
G1 X9.552 Y104.438 E216.50194
G1 X9.072 Y86.542 E217.33248
G1 X9.213 Y85.796 E217.36768
G1 X9.430 Y85.300 E217.39282
G1 X9.728 Y84.861 E217.41742
G1 X13.020 Y81.610 E217.63208
G1 X38.533 Y58.744 E219.22147
G1 X38.831 Y59.077 F7200.000
G1 F1200.000
G1 X39.400 Y58.738 E219.25221
G1 X40.142 Y58.543 E219.28779
G1 X59.013 Y58.580 E220.16324
G1 X79.786 Y64.017 E221.15942
G1 X109.802 Y52.462 E222.65158
G1 X142.194 Y31.001 E224.45421
G1 X163.674 Y22.925 E225.51882
G1 X164.229 Y22.817 E225.54507
G1 X164.778 Y22.822 E225.57052
G1 X165.391 Y22.965 E225.59974
G1 X169.716 Y24.868 E225.81893
G1 X170.119 Y25.142 E225.84155
G1 X170.463 Y25.493 E225.86434
G1 X170.770 Y25.984 E225.89120
